;FLAVOR:Marlin
;TIME:1749
;Filament used: 1.10405m
;Layer height: 0.175
;MINX:37.712
;MINY:37.701
;MINZ:0.263
;MAXX:82.3
;MAXY:82.299
;MAXZ:2.888
;Generated with Cura_SteamEngine 4.2.1
M140 S60
M105
M190 S60
M104 S210
M105
M109 S210
M82 ;absolute extrusion mode
G21;(metric values)
G90;(absolute positioning)
M82;(set extruder to absolute mode)
M107;(start with the fan off)
G28;(Home the printer)
G92 E0;(Reset the extruder to 0)
G0 Z5 E5 F500;(Move up and prime the nozzle)
G0 X-1 Z0;(Move outside the printable area)
G1 Y60 E8 F500;(Draw a priming/wiping line to the rear)
G1 X-1;(Move a little closer to the print area)
G1 Y10 E16 F500;(draw more priming/wiping)
G1 E15 F250;(Small retract)
G92 E0;(Zero the extruder)
M141 S28
G92 E0
G92 E0
G1 F2400 E-3
;LAYER_COUNT:17
;LAYER:0
M107
;MESH:psychic core badge.stl
G0 F4320 X48.678 Y77.64 Z0.263
;TYPE:WALL-INNER
G1 F2400 E0
G1 F1800 X48.032 Y77.164 E0.03071
G1 X45.937 Y75.53 E0.13239
G1 X45.389 Y74.965 E0.16251
G1 X43.585 Y72.997 E0.26468
G1 X43.118 Y72.322 E0.29609
G1 X41.681 Y70.116 E0.39685
G1 X41.332 Y69.374 E0.42823
G1 X40.269 Y66.941 E0.52984
G1 X40.047 Y66.156 E0.56106
G1 X39.403 Y63.601 E0.6619
G1 X39.31 Y62.769 E0.69393
G1 X39.093 Y60.147 E0.79462
G1 X39.133 Y59.379 E0.82405
G1 X39.356 Y56.675 E0.92789
G1 X39.531 Y55.89 E0.95867
G1 X40.182 Y53.306 E1.06064
G1 X40.473 Y52.59 E1.09022
G1 X41.556 Y50.115 E1.19361
G1 X41.958 Y49.458 E1.22309
G1 X43.419 Y47.212 E1.32563
G1 X43.935 Y46.618 E1.35574
G1 X45.744 Y44.652 E1.45798
G1 X46.37 Y44.133 E1.4891
G1 X48.452 Y42.507 E1.5902
G1 X49.149 Y42.103 E1.62103
G1 X51.468 Y40.84 E1.72209
G1 X52.233 Y40.554 E1.75334
G1 X54.728 Y39.694 E1.85434
G1 X55.526 Y39.538 E1.88546
G1 X58.135 Y39.098 E1.98671
G1 X58.959 Y39.076 E2.01826
G1 X61.589 Y39.076 E2.11891
G1 X62.355 Y39.181 E2.1485
G1 X64.997 Y39.623 E2.25101
G1 X65.755 Y39.86 E2.28141
G1 X68.273 Y40.728 E2.38334
G1 X68.966 Y41.08 E2.41308
G1 X71.321 Y42.359 E2.51564
G1 X71.944 Y42.818 E2.54526
G1 X74.063 Y44.469 E2.64806
G1 X74.605 Y45.029 E2.67788
G1 X76.415 Y47.003 E2.78038
G1 X76.879 Y47.673 E2.81157
G1 X78.32 Y49.886 E2.91263
G1 X78.655 Y50.594 E2.94261
G1 X79.729 Y53.055 E3.04537
G1 X79.97 Y53.913 E3.07947
G1 X80.597 Y56.396 E3.17748
G1 X80.642 Y56.65 E3.18735
G1 X80.907 Y59.841 E3.30989
G1 X80.867 Y60.621 E3.33978
G1 X80.644 Y63.325 E3.44361
G1 X80.469 Y64.111 E3.47443
G1 X79.823 Y66.684 E3.57596
G1 X79.528 Y67.408 E3.60588
G1 X78.447 Y69.879 E3.70909
G1 X78.043 Y70.539 E3.73871
G1 X76.578 Y72.792 E3.84156
G1 X76.071 Y73.376 E3.87115
G1 X74.161 Y75.455 E3.9792
G1 X71.545 Y77.495 E4.10615
G1 X70.868 Y77.887 E4.13609
G1 X68.521 Y79.163 E4.23833
G1 X67.762 Y79.448 E4.26935
G1 X65.268 Y80.308 E4.37031
G1 X64.483 Y80.461 E4.40092
G1 X61.82 Y80.907 E4.50425
G1 X61.051 Y80.924 E4.53369
G1 X58.411 Y80.924 E4.63472
G1 X57.653 Y80.82 E4.664
G1 X54.997 Y80.376 E4.76706
G1 X54.246 Y80.141 E4.79717
G1 X51.727 Y79.272 E4.89915
G1 X51.03 Y78.918 E4.92907
G1 X49.287 Y77.971 E5.00498
G0 F1620 X48.678 Y77.64
G0 F4320 X48.489 Y77.936
G1 F2400 E5.03154
G1 F1800 X47.824 Y77.446 E5.06315
G1 X45.705 Y75.793 E5.166
G1 X45.132 Y75.201 E5.19753
G1 X43.312 Y73.218 E5.30054
G1 X42.83 Y72.521 E5.33297
G1 X41.373 Y70.284 E5.43514
G1 X41.015 Y69.523 E5.46732
G1 X39.939 Y67.06 E5.57018
G1 X39.71 Y66.251 E5.60236
G1 X39.057 Y63.66 E5.70462
G1 X38.962 Y62.808 E5.73743
G1 X38.742 Y60.15 E5.8395
G1 X38.784 Y59.35 E5.87016
G1 X39.009 Y56.621 E5.97495
G1 X39.189 Y55.814 E6.00659
G1 X39.849 Y53.196 E6.10992
G1 X40.152 Y52.45 E6.14073
G1 X41.243 Y49.956 E6.24491
G1 X41.665 Y49.267 E6.27583
G1 X43.138 Y47.003 E6.3792
G1 X43.155 Y46.984 E6.38017
G1 X43.678 Y46.381 E6.41072
G1 X45.501 Y44.398 E6.5138
G1 X46.147 Y43.863 E6.5459
G1 X48.256 Y42.216 E6.64831
G1 X48.974 Y41.8 E6.68007
G1 X51.328 Y40.519 E6.78263
G1 X52.11 Y40.226 E6.81459
G1 X54.64 Y39.354 E6.917
G1 X55.459 Y39.194 E6.94894
G1 X58.077 Y38.754 E7.05053
G1 X58.103 Y38.749 E7.05155
G1 X58.949 Y38.726 E7.08394
G1 X61.615 Y38.726 E7.18596
G1 X62.403 Y38.834 E7.2164
G1 X65.081 Y39.282 E7.32031
G1 X65.86 Y39.526 E7.35155
G1 X68.411 Y40.405 E7.45481
G1 X69.133 Y40.772 E7.48581
G1 X71.51 Y42.063 E7.58933
G1 X72.152 Y42.536 E7.61984
G1 X74.298 Y44.209 E7.72398
G1 X74.863 Y44.792 E7.75505
G1 X76.688 Y46.782 E7.85838
G1 X77.167 Y47.474 E7.89059
G1 X78.625 Y49.713 E7.99284
G1 X78.97 Y50.444 E8.02378
G1 X78.975 Y50.454 E8.02421
G1 X80.059 Y52.935 E8.12782
G1 X80.309 Y53.827 E8.16327
G1 X80.941 Y56.329 E8.26203
G1 X80.99 Y56.61 E8.27295
G1 X81.258 Y59.841 E8.39702
G1 X81.216 Y60.65 E8.42803
G1 X80.991 Y63.379 E8.53282
G1 X80.811 Y64.187 E8.5645
G1 X80.155 Y66.796 E8.66745
G1 X79.849 Y67.548 E8.69852
G1 X78.757 Y70.044 E8.80279
G1 X78.342 Y70.722 E8.83321
G1 X76.859 Y73.001 E8.93727
G1 X76.842 Y73.02 E8.93824
G1 X76.328 Y73.613 E8.96827
G1 X74.401 Y75.711 E9.07729
G1 X71.741 Y77.786 E9.2064
G1 X71.043 Y78.19 E9.23726
G1 X68.661 Y79.485 E9.34102
G1 X67.885 Y79.776 E9.37274
G1 X65.356 Y80.648 E9.47512
G1 X64.55 Y80.805 E9.50654
G1 X61.851 Y81.257 E9.61127
G1 X61.059 Y81.274 E9.64159
G1 X58.385 Y81.274 E9.74392
G1 X57.605 Y81.167 E9.77405
G1 X54.914 Y80.717 E9.87847
G1 X54.141 Y80.475 E9.90947
G1 X51.589 Y79.595 E10.01277
G1 X50.863 Y79.226 E10.04394
G1 X49.098 Y78.267 E10.12081
G0 F1620 X48.489 Y77.936
G0 F4320 X48.3 Y78.232
G1 F2400 E10.14737
G1 F1800 X47.616 Y77.728 E10.17989
G1 X45.47 Y76.053 E10.28407
G1 X44.874 Y75.438 E10.31685
G1 X43.039 Y73.439 E10.42069
G1 X42.542 Y72.72 E10.45414
G1 X41.065 Y70.452 E10.55772
G1 X40.698 Y69.672 E10.59071
G1 X39.609 Y67.179 E10.69482
G1 X39.373 Y66.346 E10.72796
G1 X38.711 Y63.719 E10.83164
G1 X38.614 Y62.847 E10.86521
G1 X38.391 Y60.153 E10.96866
G1 X38.435 Y59.321 E11.00055
G1 X38.662 Y56.567 E11.1063
G1 X38.847 Y55.738 E11.13881
G1 X39.516 Y53.086 E11.24348
G1 X39.831 Y52.31 E11.27553
G1 X40.93 Y49.797 E11.3805
G1 X41.372 Y49.076 E11.41286
G1 X42.857 Y46.794 E11.51706
G1 X42.874 Y46.775 E11.51803
G1 X43.421 Y46.144 E11.54999
G1 X45.258 Y44.144 E11.65392
G1 X45.924 Y43.593 E11.687
G1 X48.063 Y41.923 E11.79085
G1 X48.798 Y41.497 E11.82336
G1 X51.188 Y40.197 E11.92748
G1 X51.987 Y39.898 E11.96013
G1 X54.552 Y39.014 E12.06396
G1 X55.392 Y38.85 E12.09671
G1 X58.045 Y38.405 E12.19966
G1 X58.071 Y38.4 E12.20068
G1 X58.939 Y38.376 E12.23391
G1 X61.641 Y38.376 E12.33731
G1 X62.451 Y38.487 E12.3686
G1 X65.165 Y38.941 E12.47391
G1 X65.965 Y39.192 E12.506
G1 X68.549 Y40.082 E12.61059
G1 X69.3 Y40.464 E12.64283
G1 X71.699 Y41.767 E12.74731
G1 X72.36 Y42.254 E12.77873
G1 X74.533 Y43.949 E12.8842
G1 X75.121 Y44.555 E12.91651
G1 X76.961 Y46.561 E13.02069
G1 X77.455 Y47.275 E13.05391
G1 X78.933 Y49.545 E13.15758
G1 X79.296 Y50.314 E13.19012
G1 X80.389 Y52.817 E13.29465
G1 X80.646 Y53.732 E13.33102
G1 X81.279 Y56.243 E13.43012
G1 X81.286 Y56.268 E13.43111
G1 X81.338 Y56.563 E13.44258
G1 X81.609 Y59.841 E13.56845
G1 X81.565 Y60.679 E13.60057
G1 X81.338 Y63.433 E13.70632
G1 X81.153 Y64.263 E13.73886
G1 X80.487 Y66.908 E13.84325
G1 X80.17 Y67.688 E13.87547
G1 X79.07 Y70.203 E13.98052
G1 X78.635 Y70.913 E14.01239
G1 X77.14 Y73.21 E14.11727
G1 X77.123 Y73.229 E14.11825
G1 X76.585 Y73.85 E14.14969
G1 X74.641 Y75.967 E14.25969
G1 X71.937 Y78.077 E14.39095
G1 X71.21 Y78.498 E14.4231
G1 X68.807 Y79.804 E14.52776
G1 X68.008 Y80.104 E14.56043
G1 X65.444 Y80.988 E14.66422
G1 X64.617 Y81.149 E14.69646
G1 X61.908 Y81.601 E14.80157
G1 X61.882 Y81.606 E14.80258
G1 X61.067 Y81.624 E14.83378
G1 X58.359 Y81.624 E14.93741
G1 X57.557 Y81.514 E14.96839
G1 X54.83 Y81.058 E15.07421
G1 X54.036 Y80.809 E15.10605
G1 X51.451 Y79.918 E15.21069
G1 X50.696 Y79.534 E15.24311
G1 X48.909 Y78.563 E15.32094
G0 F1620 X48.3 Y78.232
G0 F4320 X48.111 Y78.528
G1 F2400 E15.3475
G1 F1800 X47.408 Y78.01 E15.38092
G1 X45.234 Y76.313 E15.48646
G1 X44.616 Y75.675 E15.52045
G1 X42.766 Y73.66 E15.62514
G1 X42.254 Y72.919 E15.65961
G1 X40.757 Y70.62 E15.7646
G1 X40.381 Y69.821 E15.79839
G1 X39.279 Y67.298 E15.90376
G1 X39.036 Y66.441 E15.93785
G1 X38.365 Y63.778 E16.04295
G1 X38.266 Y62.886 E16.07729
G1 X38.04 Y60.156 E16.18213
G1 X38.086 Y59.292 E16.21524
G1 X38.315 Y56.513 E16.32195
G1 X38.505 Y55.662 E16.35532
G1 X39.183 Y52.976 E16.46134
G1 X39.51 Y52.17 E16.49463
G1 X40.617 Y49.638 E16.60038
G1 X41.079 Y48.885 E16.63419
G1 X42.576 Y46.585 E16.73921
G1 X42.593 Y46.566 E16.74019
G1 X43.164 Y45.907 E16.77356
G1 X45.015 Y43.89 E16.87833
G1 X45.701 Y43.323 E16.91239
G1 X47.867 Y41.632 E17.01755
G1 X48.623 Y41.194 E17.05099
G1 X51.048 Y39.875 E17.15663
G1 X51.864 Y39.57 E17.18997
G1 X54.464 Y38.674 E17.29521
G1 X55.325 Y38.506 E17.32879
G1 X58.014 Y38.056 E17.43313
G1 X58.039 Y38.051 E17.4341
G1 X58.929 Y38.026 E17.46817
G1 X61.667 Y38.026 E17.57296
G1 X62.499 Y38.14 E17.6051
G1 X65.249 Y38.6 E17.7118
G1 X66.07 Y38.858 E17.74473
G1 X68.687 Y39.759 E17.85066
G1 X69.467 Y40.156 E17.88415
G1 X71.888 Y41.471 E17.98959
G1 X72.568 Y41.972 E18.02191
G1 X74.765 Y43.686 E18.12855
G1 X75.378 Y44.319 E18.16227
G1 X77.234 Y46.34 E18.26728
G1 X77.743 Y47.076 E18.30153
G1 X79.241 Y49.377 E18.40661
G1 X79.617 Y50.174 E18.44033
G1 X80.719 Y52.697 E18.54569
G1 X80.985 Y53.646 E18.58341
G1 X81.624 Y56.182 E18.6835
G1 X81.631 Y56.207 E18.68449
G1 X81.686 Y56.516 E18.6965
G1 X81.96 Y59.841 E18.82418
G1 X81.914 Y60.708 E18.85741
G1 X81.685 Y63.487 E18.96412
G1 X81.495 Y64.339 E18.99753
G1 X80.82 Y67.018 E19.10326
G1 X80.491 Y67.828 E19.13672
G1 X79.383 Y70.362 E19.24256
G1 X78.928 Y71.104 E19.27587
G1 X77.421 Y73.419 E19.38158
G1 X77.404 Y73.438 E19.38256
G1 X76.842 Y74.087 E19.41541
G1 X74.881 Y76.223 E19.52638
G1 X72.133 Y78.368 E19.65979
G1 X71.377 Y78.806 E19.69323
G1 X68.953 Y80.123 E19.7988
G1 X68.131 Y80.432 E19.83241
G1 X65.557 Y81.318 E19.93659
G1 X65.539 Y81.325 E19.93733
G1 X65.512 Y81.33 E19.93838
G1 X64.675 Y81.494 E19.97102
G1 X61.913 Y81.956 E20.07819
G1 X61.075 Y81.974 E20.11027
G1 X58.333 Y81.974 E20.2152
G1 X57.509 Y81.861 E20.24703
G1 X54.746 Y81.399 E20.35424
G1 X53.931 Y81.143 E20.38693
G1 X51.313 Y80.241 E20.4929
G1 X50.529 Y79.842 E20.52657
G1 X48.72 Y78.859 E20.60536
G0 F1620 X48.111 Y78.528
G0 F4320 X47.935 Y78.803
;TYPE:WALL-OUTER
G1 F2400 E20.63192
G1 F1800 X47.215 Y78.272 E20.66616
G1 X45.018 Y76.556 E20.77285
G1 X44.383 Y75.901 E20.80776
G1 X42.512 Y73.863 E20.91364
G1 X41.987 Y73.104 E20.94895
G1 X40.472 Y70.777 E21.05522
G1 X40.083 Y69.951 E21.09016
G1 X38.971 Y67.406 E21.19645
G1 X38.723 Y66.53 E21.23129
G1 X38.044 Y63.834 E21.33769
G1 X37.943 Y62.922 E21.3728
G1 X37.714 Y60.158 E21.47894
G1 X37.762 Y59.265 E21.51317
G1 X37.993 Y56.466 E21.62065
G1 X38.19 Y55.582 E21.65531
G1 X38.873 Y52.876 E21.76212
G1 X39.212 Y52.04 E21.79664
G1 X40.328 Y49.488 E21.90324
G1 X40.802 Y48.715 E21.93794
G1 X42.32 Y46.384 E22.04439
G1 X42.918 Y45.694 E22.07934
G1 X44.793 Y43.651 E22.18546
G1 X45.494 Y43.072 E22.22025
G1 X47.685 Y41.362 E22.32662
G1 X48.468 Y40.908 E22.36126
G1 X50.909 Y39.581 E22.46758
G1 X51.758 Y39.263 E22.50228
G1 X54.381 Y38.359 E22.60846
G1 X55.271 Y38.185 E22.64316
G1 X58.005 Y37.727 E22.74925
G1 X58.92 Y37.701 E22.78428
G1 X61.689 Y37.701 E22.89025
G1 X62.553 Y37.819 E22.92362
G1 X65.32 Y38.282 E23.03099
G1 X66.167 Y38.548 E23.06496
G1 X68.817 Y39.46 E23.17222
G1 X69.622 Y39.87 E23.20679
G1 X72.064 Y41.196 E23.31313
G1 X72.761 Y41.71 E23.34628
G1 X74.981 Y43.443 E23.45406
G1 X75.617 Y44.099 E23.48902
G1 X77.488 Y46.137 E23.5949
G1 X78.01 Y46.891 E23.63
G1 X79.528 Y49.223 E23.73648
G1 X79.915 Y50.044 E23.77122
G1 X81.026 Y52.588 E23.87746
G1 X81.298 Y53.558 E23.91601
G1 X81.95 Y56.143 E24.01804
G1 X82.009 Y56.475 E24.03094
G1 X82.286 Y59.841 E24.16019
G1 X82.238 Y60.735 E24.19446
G1 X82.007 Y63.534 E24.30194
G1 X81.81 Y64.418 E24.3366
G1 X81.129 Y67.119 E24.4432
G1 X80.789 Y67.958 E24.47785
G1 X79.672 Y70.512 E24.58453
G1 X79.205 Y71.274 E24.61873
G1 X77.68 Y73.616 E24.72568
G1 X77.081 Y74.306 E24.76065
G1 X75.106 Y76.46 E24.87249
G1 X72.315 Y78.638 E25.00798
G1 X71.532 Y79.092 E25.04262
G1 X69.093 Y80.417 E25.14884
G1 X68.237 Y80.739 E25.18384
G1 X65.621 Y81.64 E25.28973
G1 X64.729 Y81.815 E25.32451
G1 X61.947 Y82.28 E25.43246
G1 X61.082 Y82.299 E25.46557
G1 X58.311 Y82.299 E25.57161
G1 X57.455 Y82.182 E25.60468
G1 X54.675 Y81.717 E25.71255
G1 X53.834 Y81.453 E25.74628
G1 X51.183 Y80.54 E25.85358
G1 X50.374 Y80.128 E25.88833
G1 X48.544 Y79.134 E25.96802
G0 F1620 X47.935 Y78.803
G0 F4320 X47.774 Y78.685
G0 X48.003 Y78.375
G0 X48.028 Y78.343
G0 X48.86 Y77.352
;TYPE:SKIN
G1 F2400 E25.99458
G1 F1800 X48.234 Y76.89 E26.02436
G1 X46.166 Y75.278 E26.1247
G1 X45.636 Y74.732 E26.15383
G1 X43.852 Y72.785 E26.25489
G1 X43.398 Y72.128 E26.28545
G1 X41.974 Y69.943 E26.38526
G1 X41.639 Y69.23 E26.41541
G1 X40.591 Y66.83 E26.51563
G1 X40.384 Y66.101 E26.54463
G1 X39.738 Y63.538 E26.64579
G1 X39.648 Y62.732 E26.67682
G1 X39.433 Y60.147 E26.77609
G1 X39.475 Y59.349 E26.80667
G1 X39.692 Y56.734 E26.90709
G1 X39.861 Y55.973 E26.93693
G1 X40.507 Y53.411 E27.03804
G1 X40.784 Y52.726 E27.06632
G1 X41.856 Y50.275 E27.1687
G1 X42.246 Y49.639 E27.19725
G1 X43.689 Y47.42 E27.29855
G1 X44.189 Y46.844 E27.32774
G1 X45.976 Y44.901 E27.42876
G1 X46.58 Y44.401 E27.45877
G1 X48.645 Y42.788 E27.55905
G1 X49.29 Y42.414 E27.58758
G1 X51.61 Y41.15 E27.68869
G1 X52.352 Y40.873 E27.719
G1 X54.811 Y40.025 E27.81855
G1 X55.582 Y39.874 E27.84861
G1 X58.171 Y39.438 E27.94909
G1 X58.968 Y39.416 E27.9796
G1 X61.573 Y39.416 E28.0793
G1 X62.241 Y39.507 E28.1051
G1 X64.92 Y39.956 E28.20905
G1 X65.654 Y40.185 E28.23848
G1 X68.139 Y41.04 E28.33905
G1 X68.803 Y41.379 E28.36758
G1 X71.139 Y42.647 E28.4693
G1 X71.738 Y43.089 E28.49779
G1 X73.83 Y44.718 E28.59926
G1 X74.357 Y45.263 E28.62827
G1 X76.148 Y47.215 E28.72966
G1 X76.596 Y47.862 E28.75977
G1 X78.022 Y50.051 E28.85975
G1 X78.344 Y50.73 E28.88851
G1 X79.408 Y53.167 E28.99028
G1 X79.632 Y53.967 E29.02207
G1 X80.267 Y56.479 E29.12123
G1 X80.306 Y56.696 E29.12967
G1 X80.567 Y59.837 E29.25029
G1 X80.524 Y60.654 E29.2816
G1 X80.308 Y63.266 E29.3819
G1 X80.139 Y64.028 E29.41177
G1 X79.498 Y66.579 E29.51243
G1 X79.217 Y67.272 E29.54105
G1 X78.147 Y69.719 E29.64326
G1 X77.755 Y70.358 E29.67195
G1 X76.308 Y72.584 E29.77355
G1 X75.82 Y73.146 E29.80204
G1 X73.927 Y75.206 E29.9091
G1 X71.356 Y77.211 E30.03388
G1 X70.709 Y77.587 E30.06252
G1 X68.375 Y78.854 E30.16415
G1 X67.623 Y79.137 E30.1949
G1 X65.182 Y79.978 E30.29371
G1 X64.427 Y80.125 E30.32314
G1 X61.784 Y80.567 E30.4257
G1 X61.043 Y80.584 E30.45406
G1 X58.427 Y80.584 E30.55418
G1 X57.767 Y80.494 E30.57967
G1 X55.067 Y80.042 E30.68443
G1 X54.352 Y79.819 E30.7131
G1 X51.861 Y78.96 E30.81394
G1 X51.189 Y78.617 E30.84281
G1 X49.469 Y77.683 E30.91771
G0 F1620 X48.86 Y77.352
G0 F4320 X60.001 Y59.72
G1 F2400 E30.94427
G1 F1800 X60.109 Y59.777 E30.94895
G1 X60.144 Y59.804 E30.95064
G1 X60.151 Y59.812 E30.95104
G1 X60.182 Y59.882 E30.95397
G1 X60.195 Y60.029 E30.95962
G1 X60.192 Y60.069 E30.96116
G1 X60.118 Y60.238 E30.96822
G1 X60.116 Y60.24 E30.96833
G1 X60.056 Y60.273 E30.97095
G1 X60.016 Y60.28 E30.9725
G1 X59.854 Y60.192 E30.97956
G1 X59.809 Y60.092 E30.98375
G1 X59.802 Y60.009 E30.98694
G1 X59.813 Y59.881 E30.99186
G1 X59.83 Y59.842 E30.99348
G1 X59.863 Y59.791 E30.99581
G1 X59.889 Y59.763 E30.99727
G1 X59.907 Y59.753 E30.99806
G0 F1620 X59.94 Y59.735
G0 X59.988 Y59.718
G0 X59.993 Y59.717
G0 X60.001 Y59.72
G0 F4320 X60.141 Y59.398
G1 F2400 E31.00193
G1 F1800 X60.301 Y59.483 E31.00886
G1 X60.378 Y59.542 E31.01257
G1 X60.449 Y59.619 E31.01658
G1 X60.526 Y59.795 E31.02393
G1 X60.546 Y60.025 E31.03277
G1 X60.536 Y60.157 E31.03783
G1 X60.429 Y60.401 E31.04803
G1 X60.387 Y60.468 E31.05106
G1 X60.363 Y60.494 E31.05241
G1 X60.321 Y60.527 E31.05445
G1 X60.199 Y60.594 E31.05978
G1 X60.14 Y60.614 E31.06216
G1 X60.022 Y60.634 E31.06674
G1 X59.944 Y60.634 E31.06973
G1 X59.913 Y60.623 E31.07099
G1 X59.616 Y60.462 E31.08392
G1 X59.591 Y60.434 E31.08535
G1 X59.549 Y60.369 E31.08832
G1 X59.465 Y60.179 E31.09627
G1 X59.451 Y60.009 E31.10279
G1 X59.469 Y59.794 E31.11105
G1 X59.52 Y59.677 E31.11593
G1 X59.584 Y59.578 E31.12045
G1 X59.654 Y59.502 E31.1244
G1 X59.696 Y59.47 E31.12642
G1 X59.801 Y59.412 E31.13101
