; generated by PrusaSlicer 2.2.0+ on 2020-04-10 at 00:26:56 UTC

;

; external perimeters extrusion width = 0.45mm
; perimeters extrusion width = 0.50mm
; infill extrusion width = 0.45mm
; solid infill extrusion width = 0.80mm
; top infill extrusion width = 0.40mm
; support material extrusion width = 0.35mm
; first layer extrusion width = 0.42mm

M73 P0 R0
M73 Q0 S0
M201 X1000 Y1000 Z1000 E5000 ; sets maximum accelerations, mm/sec^2
M203 X200 Y200 Z12 E160 ; sets maximum feedrates, mm/sec
M204 P1250 R1250 T1250 ; sets acceleration (P, T) and retract acceleration (R), mm/sec^2
M205 X8.00 Y8.00 Z0.40 E4.50 ; sets the jerk limits, mm/sec
M205 S0 T0 ; sets the minimum extruding and travel feed rate, mm/sec
M107
M862.3 P "MK3S" ; printer model check
M862.1 P0.4 ; nozzle diameter check
M115 U3.8.1 ; tell printer latest fw version
G90 ; use absolute coordinates
M83 ; extruder relative mode
M104 S245 ; set extruder temp
M140 S90 ; set bed temp
M190 S90 ; wait for bed temp
M109 S245 ; wait for extruder temp
G28 W ; home all without mesh bed level
G80 ; mesh bed leveling
G1 Y-3.0 F1000.0 ; go outside print area
G92 E0.0
G1 X60.0 E9.0 F1000.0 ; intro line
G1 X100.0 E12.5 F1000.0 ; intro line
G92 E0.0
M221 S95
G21 ; set units to millimeters
G90 ; use absolute coordinates
M83 ; use relative distances for extrusion
M900 K45 ; Filament gcode
;BEFORE_LAYER_CHANGE
G92 E0.0
; starting change to layer 0, at 0.2mm
;0.2

G1 E-1.40000 F2100.00000
G1 Z0.200 F12000.000
;AFTER_LAYER_CHANGE
; starting layer 0, at 0.2mm
;0.2

snap
; printing object Skirt id:0 copy 0
G1 Z0.400
G1 X119.415 Y100.315
G1 Z0.200
G1 E1.40000 F2100.00000
M204 S1000
G1 F900
G1 X119.936 Y99.756 E0.02394
G1 X120.513 Y99.255 E0.02395
G1 X121.029 Y98.887 E0.01990
G1 X121.634 Y98.534 E0.02195
G1 X122.269 Y98.241 E0.02193
G1 X122.930 Y98.011 E0.02193
G1 X123.609 Y97.844 E0.02192
G1 X124.365 Y97.738 E0.02395
G1 X125.064 Y97.711 E0.02192
G1 X125.762 Y97.750 E0.02192
G1 X126.517 Y97.870 E0.02397
G1 X127.130 Y98.028 E0.01988
G1 X127.848 Y98.290 E0.02395
G1 X128.534 Y98.624 E0.02394
G1 X129.129 Y98.993 E0.02192
G1 X129.685 Y99.415 E0.02192
G1 X130.244 Y99.936 E0.02394
G1 X130.745 Y100.513 E0.02395
G1 X131.113 Y101.029 E0.01988
G1 X131.495 Y101.691 E0.02395
G1 X131.806 Y102.388 E0.02392
G1 X132.042 Y103.114 E0.02395
G1 X132.179 Y103.734 E0.01991
G1 X132.262 Y104.364 E0.01991
G1 X132.289 Y105.127 E0.02395
G1 X132.235 Y105.888 E0.02392
G1 X132.103 Y106.641 E0.02395
G1 X131.933 Y107.252 E0.01988
G1 X131.659 Y107.965 E0.02395
G1 X131.313 Y108.646 E0.02395
G1 X130.972 Y109.180 E0.01988
G1 X130.501 Y109.783 E0.02398
G1 X130.064 Y110.244 E0.01991
G1 X129.588 Y110.665 E0.01991
G1 X128.970 Y111.114 E0.02395
G1 X128.309 Y111.495 E0.02394
G1 X127.672 Y111.782 E0.02192
G1 X127.010 Y112.007 E0.02192
G1 X126.265 Y112.179 E0.02397
G1 X125.636 Y112.262 E0.01988
G1 X124.873 Y112.289 E0.02395
G1 X124.112 Y112.235 E0.02392
G1 X123.359 Y112.103 E0.02395
G1 X122.748 Y111.933 E0.01988
G1 X122.035 Y111.659 E0.02395
G1 X121.354 Y111.313 E0.02395
G1 X120.820 Y110.972 E0.01988
G1 X120.217 Y110.501 E0.02398
G1 X119.756 Y110.064 E0.01991
G1 X119.335 Y109.588 E0.01991
G1 X118.886 Y108.970 E0.02395
G1 X118.505 Y108.309 E0.02394
G1 X118.218 Y107.672 E0.02192
G1 X117.993 Y107.010 E0.02192
G1 X117.821 Y106.265 E0.02397
G1 X117.738 Y105.636 E0.01988
G1 X117.711 Y104.872 E0.02397
G1 X117.757 Y104.175 E0.02192
G1 X117.870 Y103.484 E0.02195
G1 X118.028 Y102.870 E0.01990
G1 X118.290 Y102.152 E0.02395
G1 X118.624 Y101.466 E0.02394
G1 X118.993 Y100.871 E0.02192
G1 X119.379 Y100.362 E0.02004
; stop printing object Skirt id:0 copy 0
G1 F9600.000;_WIPE
G1 X119.936 Y99.756 E-0.17106
G1 F9600.000;_WIPE
G1 X120.513 Y99.255 E-0.15876
G1 F9600.000;_WIPE
G1 X121.029 Y98.887 E-0.13186
G1 F9600.000;_WIPE
G1 X121.634 Y98.534 E-0.14547
G1 F9600.000;_WIPE
G1 X122.269 Y98.241 E-0.14536
G1 F9600.000;_WIPE
G1 X122.930 Y98.011 E-0.14536
G1 F9600.000;_WIPE
G1 X123.609 Y97.844 E-0.14527
G1 F9600.000;_WIPE
G1 X124.365 Y97.738 E-0.15874
G1 F9600.000;_WIPE
G1 X124.981 Y97.714 E-0.12811
G1 E-0.07000 F2100.00000
G1 Z0.400 F12000.000

M83     ;relative extrusions

G0 X20 Y110 Z50 F5000 ;move to position
G1 F500 ;500mm/min speed
G1 E20  ;prime with 20mm
G1 F3   ;slow extrude for pause
G1 E0.1 ;0.1mm extrusion
G1 F500 ;500mm/min speed
G1 E250 ;250mm extrusion

G0 X60 Y110 Z50 F9000 ;move to position
G1 F520 ;520mm/min speed
G1 E20  ;prime with 20mm
G1 F3   ;slow extrude for pause
G1 E0.1 ;0.1mm extrusion
G1 F520 ;520mm/min speed
G1 E250 ;250mm extrusion x2 to
G1 E250 ;trick max extrusion limit

G0 X100 Y110 Z50 F9000 ;move to position
G1 F530 ;530mm/min speed
G1 E20  ;prime with 20mm
G1 F3   ;slow extrude for pause
G1 E0.1 ;0.1mm extrusion
G1 F530 ;530mm/min speed
G1 E250 ;250mm extrusion x2 to
G1 E250 ;trick max extrusion limit

G0 X140 Y110 Z50 F9000 ;move to position
G1 F540 ;540mm/min speed
G1 E20  ;prime with 20mm
G1 F3   ;slow extrude for pause
G1 E0.1 ;0.1mm extrusion
G1 F540 ;540mm/min speed
G1 E250 ;250mm extrusion x2 to
G1 E250 ;trick max extrusion limit

G0 X180 Y110 Z50 F9000 ;move to position
G1 F550 ;550mm/min speed
G1 E20  ;prime with 20mm
G1 F3   ;slow extrude for pause
G1 E0.1 ;0.1mm extrusion
G1 F550 ;550mm/min speed
G1 E250 ;250mm extrusion x2 to
G1 E250 ;trick max extrusion limit


; Filament-specific end gcode
G4 ; wait
M221 S100
M104 S0 ; turn off temperature
M140 S0 ; turn off heatbed
M107 ; turn off fan
G1 Z30.4 ; Move print head up
G1 X0 Y200 F3000 ; home X axis
M84 ; disable motors
M73 P100 R0
M73 Q100 S0
; filament used [mm] = 1.4
; filament used [cm3] = 0.0
; filament used [g] = 0.0
; filament cost = 0.0

; total filament used [g] = 0.0
; total filament cost = 0.0
; estimated printing time (normal mode) = 16s
; estimated printing time (silent mode) = 16s

; avoid_crossing_perimeters = 0
; bed_custom_model = /Users/matt/Documents/CAD/_print_meta/_Prusa/Prusa_i3_MK3_PrusaSlicer.stl
; bed_custom_texture = /Applications/PrusaSlicer.app/Contents/Resources/profiles/PrusaResearch/mk3.svg
; bed_shape = 0x0,250x0,250x210,0x210
; bed_temperature = 90
; before_layer_gcode = ;BEFORE_LAYER_CHANGE\nG92 E0.0\n; starting change to layer [layer_num], at [layer_z]mm\n;[layer_z]\n
; between_objects_gcode =
; bottom_fill_pattern = rectilinear
; bottom_solid_layers = 0
; bottom_solid_min_thickness = 0.6
; bridge_acceleration = 1000
; bridge_angle = 0
; bridge_fan_speed = 50
; bridge_flow_ratio = 0.8
; bridge_speed = 30
; brim_width = 0
; clip_multipart_objects = 1
; compatible_printers_condition_cummulative = "printer_notes=~/.*PRINTER_VENDOR_PRUSA3D.*/ and printer_notes=~/.*PRINTER_MODEL_MK3.*/ and nozzle_diameter[0]==0.4";"nozzle_diameter[0]!=0.6 and printer_model!=\"MK2SMM\" and printer_model!=\"MINI\" and ! (printer_notes=~/.*PRINTER_VENDOR_PRUSA3D.*/ and printer_notes=~/.*PRINTER_MODEL_MK(2.5|3).*/ and single_extruder_multi_material)"
; complete_objects = 0
; cooling = 1
; cooling_tube_length = 5
; cooling_tube_retraction = 91.5
; default_acceleration = 1000
; default_filament_profile = "Prusament PLA"
; default_print_profile = 0.15mm QUALITY @MK3
; deretract_speed = 0
; disable_fan_first_layers = 2
; dont_support_bridges = 1
; draft_shield = 0
; duplicate_distance = 6
; elefant_foot_compensation = 0
; end_filament_gcode = "; Filament-specific end gcode"
; end_gcode = G4 ; wait\nM221 S100\nM104 S0 ; turn off temperature\nM140 S0 ; turn off heatbed\nM107 ; turn off fan\n{if layer_z < max_print_height}G1 Z{z_offset+min(layer_z+30, max_print_height)}{endif} ; Move print head up\nG1 X0 Y200 F3000 ; home X axis\nM84 ; disable motors
; ensure_vertical_shell_thickness = 1
; external_perimeter_extrusion_width = 0.45
; external_perimeter_speed = 35
; external_perimeters_first = 0
; extra_loading_move = -2
; extra_perimeters = 1
; extruder_clearance_height = 25
; extruder_clearance_radius = 45
; extruder_colour = ""
; extruder_offset = 0x0
; extrusion_axis = E
; extrusion_multiplier = 1
; extrusion_width = 0.45
; fan_always_on = 1
; fan_below_layer_time = 60
; filament_colour = #FF8000
; filament_cooling_final_speed = 3.4
; filament_cooling_initial_speed = 2.2
; filament_cooling_moves = 4
; filament_cost = 27.82
; filament_density = 1.27
; filament_diameter = 1.75
; filament_load_time = 0
; filament_loading_speed = 28
; filament_loading_speed_start = 3
; filament_max_volumetric_speed = 12
; filament_minimal_purge_on_wipe_tower = 15
; filament_notes = ""
; filament_ramming_parameters = "120 100 6.6 6.8 7.2 7.6 7.9 8.2 8.7 9.4 9.9 10.0| 0.05 6.6 0.45 6.8 0.95 7.8 1.45 8.3 1.95 9.7 2.45 10 2.95 7.6 3.45 7.6 3.95 7.6 4.45 7.6 4.95 7.6"
; filament_retract_length = 1.4
; filament_retract_lift = 0.2
; filament_settings_id = "Prusa PETG - MF"
; filament_soluble = 0
; filament_toolchange_delay = 0
; filament_type = PETG
; filament_unload_time = 0
; filament_unloading_speed = 90
; filament_unloading_speed_start = 100
; filament_vendor = Made for Prusa
; fill_angle = 45
; fill_density = 0%
; fill_pattern = gyroid
; first_layer_acceleration = 1000
; first_layer_bed_temperature = 90
; first_layer_extrusion_width = 0.42
; first_layer_height = 0.2
; first_layer_speed = 20
; first_layer_temperature = 245
; gap_fill_speed = 40
; gcode_comments = 0
; gcode_flavor = marlin
; gcode_label_objects = 1
; high_current_on_filament_swap = 0
; host_type = octoprint
; infill_acceleration = 1250
; infill_every_layers = 1
; infill_extruder = 1
; infill_extrusion_width = 0.45
; infill_first = 0
; infill_only_where_needed = 0
; infill_overlap = 30%
; infill_speed = 200
; interface_shells = 0
; layer_gcode = ;AFTER_LAYER_CHANGE\n; starting layer [layer_num], at [layer_z]mm\n;[layer_z]\n\nsnap
; layer_height = 0.2
; machine_max_acceleration_e = 5000,5000
; machine_max_acceleration_extruding = 1250,1250
; machine_max_acceleration_retracting = 1250,1250
; machine_max_acceleration_x = 1000,960
; machine_max_acceleration_y = 1000,960
; machine_max_acceleration_z = 1000,1000
; machine_max_feedrate_e = 120,120
; machine_max_feedrate_x = 200,100
; machine_max_feedrate_y = 200,100
; machine_max_feedrate_z = 12,12
; machine_max_jerk_e = 4.5,4.5
; machine_max_jerk_x = 8,8
; machine_max_jerk_y = 8,8
; machine_max_jerk_z = 0.4,0.4
; machine_min_extruding_rate = 0,0
; machine_min_travel_rate = 0,0
; max_fan_speed = 30
; max_layer_height = 0.25
; max_print_height = 210
; max_print_speed = 200
; max_volumetric_speed = 0
; min_fan_speed = 15
; min_layer_height = 0.07
; min_print_speed = 15
; min_skirt_length = 4
; notes =
; nozzle_diameter = 0.4
; only_retract_when_crossing_perimeters = 0
; ooze_prevention = 0
; output_filename_format = {input_filename_base}_{layer_height}mm_{filament_type[0]}.gcode
; overhangs = 1
; parking_pos_retraction = 92
; perimeter_acceleration = 800
; perimeter_extruder = 1
; perimeter_extrusion_width = 0.5
; perimeter_speed = 60
; perimeters = 1
; post_process =
; print_settings_id = 0.20mm SPEED @MK3 - MF
; printer_model = MK3S
; printer_notes = Don't remove the following keywords! These keywords are used in the "compatible printer" condition of the print and filament profiles to link the particular print and filament profiles to this printer profile.\nPRINTER_VENDOR_PRUSA3D\nPRINTER_MODEL_MK3\n
; printer_settings_id = Original Prusa i3 MK3S - MF
; printer_technology = FFF
; printer_variant = 0.4
; printer_vendor =
; raft_layers = 0
; remaining_times = 1
; resolution = 0
; retract_before_travel = 1
; retract_before_wipe = 0%
; retract_layer_change = 1
; retract_length = 0.8
; retract_length_toolchange = 4
; retract_lift = 0.6
; retract_lift_above = 0
; retract_lift_below = 209
; retract_restart_extra = 0
; retract_restart_extra_toolchange = 0
; retract_speed = 35
; seam_position = aligned
; serial_port =
; serial_speed = 250000
; silent_mode = 1
; single_extruder_multi_material = 0
; single_extruder_multi_material_priming = 0
; skirt_distance = 2
; skirt_height = 1
; skirts = 0
; slice_closing_radius = 0.049
; slowdown_below_layer_time = 20
; small_perimeter_speed = 25
; solid_infill_below_area = 0
; solid_infill_every_layers = 0
; solid_infill_extruder = 1
; solid_infill_extrusion_width = 0.8
; solid_infill_speed = 200
; spiral_vase = 0
; standby_temperature_delta = -5
; start_filament_gcode = "M900 K{if printer_notes=~/.*PRINTER_HAS_BOWDEN.*/}200{elsif nozzle_diameter[0]==0.6}24{else}45{endif} ; Filament gcode"
; start_gcode = M862.3 P "[printer_model]" ; printer model check\nM862.1 P[nozzle_diameter] ; nozzle diameter check\nM115 U3.8.1 ; tell printer latest fw version\nG90 ; use absolute coordinates\nM83 ; extruder relative mode\nM104 S[first_layer_temperature] ; set extruder temp\nM140 S[first_layer_bed_temperature] ; set bed temp\nM190 S[first_layer_bed_temperature] ; wait for bed temp\nM109 S[first_layer_temperature] ; wait for extruder temp\nG28 W ; home all without mesh bed level\nG80 ; mesh bed leveling\nG1 Y-3.0 F1000.0 ; go outside print area\nG92 E0.0\nG1 X60.0 E9.0 F1000.0 ; intro line\nG1 X100.0 E12.5 F1000.0 ; intro line\nG92 E0.0\nM221 S{if layer_height<0.075}100{else}95{endif}
; support_material = 1
; support_material_angle = 0
; support_material_auto = 0
; support_material_buildplate_only = 0
; support_material_contact_distance = 0.1
; support_material_enforce_layers = 0
; support_material_extruder = 0
; support_material_extrusion_width = 0.35
; support_material_interface_contact_loops = 0
; support_material_interface_extruder = 0
; support_material_interface_layers = 2
; support_material_interface_spacing = 0.2
; support_material_interface_speed = 100%
; support_material_pattern = rectilinear
; support_material_spacing = 2
; support_material_speed = 50
; support_material_synchronize_layers = 0
; support_material_threshold = 55
; support_material_with_sheath = 0
; support_material_xy_spacing = 50%
; temperature = 245
; thin_walls = 0
; threads = 16
; thumbnails =
; toolchange_gcode =
; top_fill_pattern = rectilinear
; top_infill_extrusion_width = 0.4
; top_solid_infill_speed = 50
; top_solid_layers = 0
; top_solid_min_thickness = 0.6
; travel_speed = 200
; use_firmware_retraction = 0
; use_relative_e_distances = 1
; use_volumetric_e = 0
; variable_layer_height = 1
; wipe = 1
; wipe_into_infill = 0
; wipe_into_objects = 0
; wipe_tower = 1
; wipe_tower_bridging = 10
; wipe_tower_no_sparse_layers = 0
; wipe_tower_rotation_angle = 0
; wipe_tower_width = 60
; wipe_tower_x = 170
; wipe_tower_y = 125
; wiping_volumes_extruders = 70,70
; wiping_volumes_matrix = 0
; xy_size_compensation = 0
; z_offset = 0
