; generated by PrusaSlicer 2.2.0+ on 2020-04-11 at 00:15:18 UTC

; 

; external perimeters extrusion width = 0.45mm
; perimeters extrusion width = 0.50mm
; infill extrusion width = 0.45mm
; solid infill extrusion width = 0.80mm
; top infill extrusion width = 0.40mm
; support material extrusion width = 0.35mm
; first layer extrusion width = 0.42mm

M73 P0 R33
M73 Q0 S43
M201 X1000 Y1000 Z1000 E5000 ; sets maximum accelerations, mm/sec^2
M203 X200 Y200 Z12 E200 ; sets maximum feedrates, mm/sec
M204 P1250 R1250 T1250 ; sets acceleration (P, T) and retract acceleration (R), mm/sec^2
M205 X8.00 Y8.00 Z0.40 E4.50 ; sets the jerk limits, mm/sec
M205 S0 T0 ; sets the minimum extruding and travel feed rate, mm/sec
M107
M862.3 P "MK3S" ; printer model check
M862.1 P0.4 ; nozzle diameter check
M115 U3.8.1 ; tell printer latest fw version
G90 ; use absolute coordinates
M83 ; extruder relative mode
M104 S245 ; set extruder temp
M140 S90 ; set bed temp
M190 S90 ; wait for bed temp
M109 S245 ; wait for extruder temp
G28 W ; home all without mesh bed level
G80 ; mesh bed leveling
G1 Y-3.0 F1000.0 ; go outside print area
G92 E0.0
G1 X60.0 E9.0 F1000.0 ; intro line
M73 Q0 S43
M73 P0 R33
G1 X100.0 E12.5 F1000.0 ; intro line
G92 E0.0
M221 S95
G21 ; set units to millimeters
G90 ; use absolute coordinates
M83 ; use relative distances for extrusion
M900 K45 ; Filament gcode
;BEFORE_LAYER_CHANGE
G92 E0.0
; starting change to layer 0, at 0.3mm
;0.3

G1 E-1.40000 F2100.00000
G1 Z0.200 F12000.000
G1 Z0.300
;AFTER_LAYER_CHANGE
; starting layer 0, at 0.3mm
;0.3

snap
G1 Z0.500
G1 X73.395 Y78.276
G1 Z0.300
G1 E1.40000 F2100.00000
M204 S1000
G1 F1200.000
G1 X73.907 Y77.913 E0.02784
G1 X74.434 Y77.713 E0.02500
G1 X74.993 Y77.644 E0.02500
G1 X175.004 Y77.644 E4.43596
G1 X175.895 Y77.821 E0.04028
G1 X176.652 Y78.321 E0.04028
G1 X177.163 Y79.068 E0.04011
G1 X177.355 Y79.955 E0.04028
G1 X177.355 Y130.057 E2.22226
G1 X177.256 Y130.677 E0.02784
G1 X177.000 Y131.245 E0.02767
G1 X176.603 Y131.726 E0.02767
G1 X176.093 Y132.087 E0.02767
G1 X175.566 Y132.287 E0.02500
G1 X175.007 Y132.356 E0.02500
G1 X74.977 Y132.356 E4.43680
G1 X74.349 Y132.264 E0.02817
G1 X73.771 Y132.010 E0.02800
G1 X73.279 Y131.608 E0.02817
G1 X72.913 Y131.093 E0.02800
G1 X72.714 Y130.570 E0.02483
G1 X72.644 Y130.011 E0.02500
G1 X72.645 Y79.955 E2.22024
G1 X72.740 Y79.334 E0.02784
G1 X72.996 Y78.761 E0.02784
G1 X73.356 Y78.323 E0.02517
; printing object box_rate_test.stl id:0 copy 0
G1 F9600.000
G1 X73.907 Y77.913 E-0.14248
G1 X74.434 Y77.713 E-0.11713
G1 X74.993 Y77.644 E-0.11713
G1 X79.580 Y77.644 E-0.95327
G1 E-0.07000 F2100.00000
G1 Z0.500 F12000.000
G1 X171.835 Y126.835
G1 Z0.300
G1 E1.40000 F2100.00000
G1 F1200.000
G1 X78.165 Y126.835 E4.15472
G1 X78.165 Y83.165 E1.93697
G1 X171.835 Y83.165 E4.15472
G1 X171.835 Y126.775 E1.93431
G1 F9600.000
G1 X165.435 Y126.779 E-1.33000
G1 E-0.07000 F2100.00000
G1 Z0.500 F12000.000
G1 X174.790 Y129.790
G1 Z0.300
G1 E1.40000 F2100.00000
G1 F1200.000
G1 X75.210 Y129.790 E4.41685
G1 X75.210 Y80.210 E2.19911
G1 X174.790 Y80.210 E4.41685
G1 X174.790 Y129.730 E2.19645
G1 F9600.000
G1 X168.390 Y129.734 E-1.33000
G1 E-0.07000 F2100.00000
G1 Z0.500 F12000.000
G1 X174.701 Y81.018
G1 Z0.300
G1 E1.40000 F2100.00000
G1 F1200.000
G1 X174.142 Y80.459 E0.03506
G1 X173.639 Y80.459 E0.02231
G1 X174.541 Y81.361 E0.05657
G1 X174.541 Y81.864 E0.02231
G1 X173.136 Y80.459 E0.08813
G1 X172.633 Y80.459 E0.02231
G1 X174.541 Y82.367 E0.11968
G1 X174.541 Y82.870 E0.02231
G1 X172.130 Y80.459 E0.15123
G1 X171.627 Y80.459 E0.02231
G1 X174.541 Y83.373 E0.18278
G1 X174.541 Y83.876 E0.02231
G1 X171.124 Y80.459 E0.21433
G1 X170.621 Y80.459 E0.02231
G1 X174.541 Y84.379 E0.24588
G1 X174.541 Y84.881 E0.02231
G1 X170.119 Y80.459 E0.27743
G1 X169.616 Y80.459 E0.02231
G1 X174.541 Y85.384 E0.30898
G1 X174.541 Y85.887 E0.02231
G1 X172.084 Y83.430 E0.15414
G1 X172.084 Y83.933 E0.02231
G1 X174.541 Y86.390 E0.15414
G1 X174.541 Y86.893 E0.02231
G1 X172.084 Y84.436 E0.15414
G1 X172.084 Y84.939 E0.02231
G1 X174.541 Y87.396 E0.15414
G1 X174.541 Y87.899 E0.02231
G1 X172.084 Y85.442 E0.15414
G1 X172.084 Y85.945 E0.02231
G1 X174.541 Y88.402 E0.15414
G1 X174.541 Y88.905 E0.02231
G1 X172.084 Y86.448 E0.15414
G1 X172.084 Y86.951 E0.02231
G1 X174.541 Y89.408 E0.15414
G1 X174.541 Y89.911 E0.02231
G1 X172.084 Y87.454 E0.15414
G1 X172.084 Y87.957 E0.02231
G1 X174.541 Y90.414 E0.15414
G1 X174.541 Y90.917 E0.02231
G1 X172.084 Y88.460 E0.15414
G1 X172.084 Y88.963 E0.02231
G1 X174.541 Y91.420 E0.15414
G1 X174.541 Y91.923 E0.02231
G1 X172.084 Y89.466 E0.15414
G1 X172.084 Y89.969 E0.02231
G1 X174.541 Y92.426 E0.15414
G1 X174.541 Y92.929 E0.02231
G1 X172.084 Y90.472 E0.15414
G1 X172.084 Y90.975 E0.02231
G1 X174.541 Y93.432 E0.15414
G1 X174.541 Y93.935 E0.02231
G1 X172.084 Y91.478 E0.15414
G1 X172.084 Y91.980 E0.02231
G1 X174.541 Y94.438 E0.15414
G1 X174.541 Y94.941 E0.02231
G1 X172.084 Y92.483 E0.15414
G1 X172.084 Y92.986 E0.02231
G1 X174.541 Y95.444 E0.15414
G1 X174.541 Y95.947 E0.02231
G1 X172.084 Y93.489 E0.15414
G1 X172.084 Y93.992 E0.02231
G1 X174.541 Y96.449 E0.15414
G1 X174.541 Y96.952 E0.02231
G1 X172.084 Y94.495 E0.15414
G1 X172.084 Y94.998 E0.02231
G1 X174.541 Y97.455 E0.15414
G1 X174.541 Y97.958 E0.02231
G1 X172.084 Y95.501 E0.15414
G1 X172.084 Y96.004 E0.02231
G1 X174.541 Y98.461 E0.15414
G1 X174.541 Y98.964 E0.02231
G1 X172.084 Y96.507 E0.15414
G1 X172.084 Y97.010 E0.02231
G1 X174.541 Y99.467 E0.15414
G1 X174.541 Y99.970 E0.02231
G1 X172.084 Y97.513 E0.15414
G1 X172.084 Y98.016 E0.02231
G1 X174.541 Y100.473 E0.15414
G1 X174.541 Y100.976 E0.02231
G1 X172.084 Y98.519 E0.15414
G1 X172.084 Y99.022 E0.02231
G1 X174.541 Y101.479 E0.15414
G1 X174.541 Y101.982 E0.02231
G1 X172.084 Y99.525 E0.15414
G1 X172.084 Y100.028 E0.02231
G1 X174.541 Y102.485 E0.15414
M73 Q2 S42
G1 X174.541 Y102.988 E0.02231
G1 X172.084 Y100.531 E0.15414
G1 X172.084 Y101.034 E0.02231
G1 X174.541 Y103.491 E0.15414
G1 X174.541 Y103.994 E0.02231
G1 X172.084 Y101.537 E0.15414
G1 X172.084 Y102.040 E0.02231
G1 X174.541 Y104.497 E0.15414
M73 P3 R32
G1 X174.541 Y105.000 E0.02231
G1 X172.084 Y102.543 E0.15414
G1 X172.084 Y103.046 E0.02231
G1 X174.541 Y105.503 E0.15414
G1 X174.541 Y106.006 E0.02231
G1 X172.084 Y103.548 E0.15414
G1 X172.084 Y104.051 E0.02231
G1 X174.541 Y106.509 E0.15414
G1 X174.541 Y107.012 E0.02231
G1 X172.084 Y104.554 E0.15414
G1 X172.084 Y105.057 E0.02231
G1 X174.541 Y107.515 E0.15414
G1 X174.541 Y108.017 E0.02231
G1 X172.084 Y105.560 E0.15414
G1 X172.084 Y106.063 E0.02231
G1 X174.541 Y108.520 E0.15414
G1 X174.541 Y109.023 E0.02231
G1 X172.084 Y106.566 E0.15414
G1 X172.084 Y107.069 E0.02231
G1 X174.541 Y109.526 E0.15414
G1 X174.541 Y110.029 E0.02231
G1 X172.084 Y107.572 E0.15414
G1 X172.084 Y108.075 E0.02231
G1 X174.541 Y110.532 E0.15414
G1 X174.541 Y111.035 E0.02231
G1 X172.084 Y108.578 E0.15414
G1 X172.084 Y109.081 E0.02231
G1 X174.541 Y111.538 E0.15414
G1 X174.541 Y112.041 E0.02231
G1 X172.084 Y109.584 E0.15414
G1 X172.084 Y110.087 E0.02231
G1 X174.541 Y112.544 E0.15414
G1 X174.541 Y113.047 E0.02231
G1 X172.084 Y110.590 E0.15414
G1 X172.084 Y111.093 E0.02231
G1 X174.541 Y113.550 E0.15414
G1 X174.541 Y114.053 E0.02231
G1 X172.084 Y111.596 E0.15414
G1 X172.084 Y112.099 E0.02231
G1 X174.541 Y114.556 E0.15414
G1 X174.541 Y115.059 E0.02231
G1 X172.084 Y112.602 E0.15414
G1 X172.084 Y113.105 E0.02231
G1 X174.541 Y115.562 E0.15414
G1 X174.541 Y116.065 E0.02231
G1 X172.084 Y113.608 E0.15414
G1 X172.084 Y114.111 E0.02231
G1 X174.541 Y116.568 E0.15414
G1 X174.541 Y117.071 E0.02231
G1 X172.084 Y114.614 E0.15414
G1 X172.084 Y115.116 E0.02231
G1 X174.541 Y117.574 E0.15414
G1 X174.541 Y118.077 E0.02231
G1 X172.084 Y115.619 E0.15414
G1 X172.084 Y116.122 E0.02231
G1 X174.541 Y118.580 E0.15414
G1 X174.541 Y119.083 E0.02231
G1 X172.084 Y116.625 E0.15414
G1 X172.084 Y117.128 E0.02231
G1 X174.541 Y119.585 E0.15414
G1 X174.541 Y120.088 E0.02231
G1 X172.084 Y117.631 E0.15414
G1 X172.084 Y118.134 E0.02231
G1 X174.541 Y120.591 E0.15414
G1 X174.541 Y121.094 E0.02231
G1 X172.084 Y118.637 E0.15414
G1 X172.084 Y119.140 E0.02231
G1 X174.541 Y121.597 E0.15414
G1 X174.541 Y122.100 E0.02231
G1 X172.084 Y119.643 E0.15414
G1 X172.084 Y120.146 E0.02231
G1 X174.541 Y122.603 E0.15414
G1 X174.541 Y123.106 E0.02231
G1 X172.084 Y120.649 E0.15414
G1 X172.084 Y121.152 E0.02231
G1 X174.541 Y123.609 E0.15414
G1 X174.541 Y124.112 E0.02231
G1 X172.084 Y121.655 E0.15414
G1 X172.084 Y122.158 E0.02231
G1 X174.541 Y124.615 E0.15414
G1 X174.541 Y125.118 E0.02231
G1 X172.084 Y122.661 E0.15414
G1 X172.084 Y123.164 E0.02231
G1 X174.541 Y125.621 E0.15414
G1 X174.541 Y126.124 E0.02231
G1 X172.084 Y123.667 E0.15414
G1 X172.084 Y124.170 E0.02231
G1 X174.541 Y126.627 E0.15414
G1 X174.541 Y127.130 E0.02231
G1 X172.084 Y124.673 E0.15414
G1 X172.084 Y125.176 E0.02231
G1 X174.541 Y127.633 E0.15414
G1 X174.541 Y128.136 E0.02231
G1 X172.084 Y125.679 E0.15414
G1 X172.084 Y126.182 E0.02231
G1 X174.541 Y128.639 E0.15414
G1 X174.541 Y129.142 E0.02231
G1 X172.084 Y126.684 E0.15414
G1 X172.084 Y127.084 E0.01772
G1 X171.980 Y127.084 E0.00459
G1 X174.438 Y129.541 E0.15414
G1 X173.935 Y129.541 E0.02231
G1 X171.477 Y127.084 E0.15414
G1 X170.974 Y127.084 E0.02231
G1 X173.432 Y129.541 E0.15414
G1 X172.929 Y129.541 E0.02231
G1 X170.472 Y127.084 E0.15414
G1 X169.969 Y127.084 E0.02231
G1 X172.426 Y129.541 E0.15414
G1 X171.923 Y129.541 E0.02231
G1 X169.466 Y127.084 E0.15414
G1 X168.963 Y127.084 E0.02231
G1 X171.420 Y129.541 E0.15414
G1 X170.917 Y129.541 E0.02231
G1 X168.460 Y127.084 E0.15414
G1 X167.957 Y127.084 E0.02231
G1 X170.414 Y129.541 E0.15414
G1 X169.911 Y129.541 E0.02231
G1 X167.454 Y127.084 E0.15414
G1 X166.951 Y127.084 E0.02231
G1 X169.408 Y129.541 E0.15414
G1 X168.905 Y129.541 E0.02231
G1 X166.448 Y127.084 E0.15414
G1 X165.945 Y127.084 E0.02231
G1 X168.402 Y129.541 E0.15414
G1 X167.899 Y129.541 E0.02231
G1 X165.442 Y127.084 E0.15414
G1 X164.939 Y127.084 E0.02231
G1 X167.396 Y129.541 E0.15414
G1 X166.893 Y129.541 E0.02231
G1 X164.436 Y127.084 E0.15414
G1 X163.933 Y127.084 E0.02231
G1 X166.390 Y129.541 E0.15414
G1 X165.887 Y129.541 E0.02231
G1 X163.430 Y127.084 E0.15414
G1 X162.927 Y127.084 E0.02231
G1 X165.384 Y129.541 E0.15414
G1 X164.881 Y129.541 E0.02231
G1 X162.424 Y127.084 E0.15414
G1 X161.921 Y127.084 E0.02231
G1 X164.378 Y129.541 E0.15414
G1 X163.875 Y129.541 E0.02231
G1 X161.418 Y127.084 E0.15414
G1 X160.915 Y127.084 E0.02231
G1 X163.373 Y129.541 E0.15414
G1 X162.870 Y129.541 E0.02231
G1 X160.412 Y127.084 E0.15414
G1 X159.909 Y127.084 E0.02231
G1 X162.367 Y129.541 E0.15414
G1 X161.864 Y129.541 E0.02231
G1 X159.406 Y127.084 E0.15414
G1 X158.904 Y127.084 E0.02231
G1 X161.361 Y129.541 E0.15414
G1 X160.858 Y129.541 E0.02231
G1 X158.401 Y127.084 E0.15414
G1 X157.898 Y127.084 E0.02231
G1 X160.355 Y129.541 E0.15414
G1 X159.852 Y129.541 E0.02231
G1 X157.395 Y127.084 E0.15414
G1 X156.892 Y127.084 E0.02231
G1 X159.349 Y129.541 E0.15414
G1 X158.846 Y129.541 E0.02231
G1 X156.389 Y127.084 E0.15414
G1 X155.886 Y127.084 E0.02231
G1 X158.343 Y129.541 E0.15414
G1 X157.840 Y129.541 E0.02231
G1 X155.383 Y127.084 E0.15414
G1 X154.880 Y127.084 E0.02231
G1 X157.337 Y129.541 E0.15414
G1 X156.834 Y129.541 E0.02231
G1 X154.377 Y127.084 E0.15414
G1 X153.874 Y127.084 E0.02231
G1 X156.331 Y129.541 E0.15414
G1 X155.828 Y129.541 E0.02231
G1 X153.371 Y127.084 E0.15414
G1 X152.868 Y127.084 E0.02231
G1 X155.325 Y129.541 E0.15414
G1 X154.822 Y129.541 E0.02231
G1 X152.365 Y127.084 E0.15414
G1 X151.862 Y127.084 E0.02231
G1 X154.319 Y129.541 E0.15414
G1 X153.816 Y129.541 E0.02231
G1 X151.359 Y127.084 E0.15414
G1 X150.856 Y127.084 E0.02231
G1 X153.313 Y129.541 E0.15414
G1 X152.810 Y129.541 E0.02231
G1 X150.353 Y127.084 E0.15414
G1 X149.850 Y127.084 E0.02231
G1 X152.307 Y129.541 E0.15414
G1 X151.805 Y129.541 E0.02231
G1 X149.347 Y127.084 E0.15414
G1 X148.844 Y127.084 E0.02231
G1 X151.302 Y129.541 E0.15414
G1 X150.799 Y129.541 E0.02231
G1 X148.341 Y127.084 E0.15414
G1 X147.838 Y127.084 E0.02231
G1 X150.296 Y129.541 E0.15414
G1 X149.793 Y129.541 E0.02231
G1 X147.336 Y127.084 E0.15414
G1 X146.833 Y127.084 E0.02231
G1 X149.290 Y129.541 E0.15414
G1 X148.787 Y129.541 E0.02231
G1 X146.330 Y127.084 E0.15414
G1 X145.827 Y127.084 E0.02231
G1 X148.284 Y129.541 E0.15414
G1 X147.781 Y129.541 E0.02231
G1 X145.324 Y127.084 E0.15414
G1 X144.821 Y127.084 E0.02231
G1 X147.278 Y129.541 E0.15414
G1 X146.775 Y129.541 E0.02231
G1 X144.318 Y127.084 E0.15414
G1 X143.815 Y127.084 E0.02231
G1 X146.272 Y129.541 E0.15414
G1 X145.769 Y129.541 E0.02231
G1 X143.312 Y127.084 E0.15414
G1 X142.809 Y127.084 E0.02231
G1 X145.266 Y129.541 E0.15414
G1 X144.763 Y129.541 E0.02231
G1 X142.306 Y127.084 E0.15414
G1 X141.803 Y127.084 E0.02231
G1 X144.260 Y129.541 E0.15414
G1 X143.757 Y129.541 E0.02231
G1 X141.300 Y127.084 E0.15414
G1 X140.797 Y127.084 E0.02231
G1 X143.254 Y129.541 E0.15414
G1 X142.751 Y129.541 E0.02231
G1 X140.294 Y127.084 E0.15414
G1 X139.791 Y127.084 E0.02231
G1 X142.248 Y129.541 E0.15414
G1 X141.745 Y129.541 E0.02231
G1 X139.288 Y127.084 E0.15414
G1 X138.785 Y127.084 E0.02231
G1 X141.242 Y129.541 E0.15414
G1 X140.739 Y129.541 E0.02231
G1 X138.282 Y127.084 E0.15414
G1 X137.779 Y127.084 E0.02231
G1 X140.237 Y129.541 E0.15414
G1 X139.734 Y129.541 E0.02231
G1 X137.276 Y127.084 E0.15414
G1 X136.773 Y127.084 E0.02231
G1 X139.231 Y129.541 E0.15414
G1 X138.728 Y129.541 E0.02231
G1 X136.270 Y127.084 E0.15414
G1 X135.768 Y127.084 E0.02231
G1 X138.225 Y129.541 E0.15414
G1 X137.722 Y129.541 E0.02231
G1 X135.265 Y127.084 E0.15414
G1 X134.762 Y127.084 E0.02231
G1 X137.219 Y129.541 E0.15414
G1 X136.716 Y129.541 E0.02231
G1 X134.259 Y127.084 E0.15414
G1 X133.756 Y127.084 E0.02231
G1 X136.213 Y129.541 E0.15414
G1 X135.710 Y129.541 E0.02231
G1 X133.253 Y127.084 E0.15414
G1 X132.750 Y127.084 E0.02231
G1 X135.207 Y129.541 E0.15414
G1 X134.704 Y129.541 E0.02231
G1 X132.247 Y127.084 E0.15414
G1 X131.744 Y127.084 E0.02231
G1 X134.201 Y129.541 E0.15414
G1 X133.698 Y129.541 E0.02231
G1 X131.241 Y127.084 E0.15414
G1 X130.738 Y127.084 E0.02231
G1 X133.195 Y129.541 E0.15414
G1 X132.692 Y129.541 E0.02231
G1 X130.235 Y127.084 E0.15414
G1 X129.732 Y127.084 E0.02231
G1 X132.189 Y129.541 E0.15414
G1 X131.686 Y129.541 E0.02231
G1 X129.229 Y127.084 E0.15414
G1 X128.726 Y127.084 E0.02231
G1 X131.183 Y129.541 E0.15414
G1 X130.680 Y129.541 E0.02231
G1 X128.223 Y127.084 E0.15414
G1 X127.720 Y127.084 E0.02231
G1 X130.177 Y129.541 E0.15414
G1 X129.674 Y129.541 E0.02231
G1 X127.217 Y127.084 E0.15414
G1 X126.714 Y127.084 E0.02231
G1 X129.171 Y129.541 E0.15414
G1 X128.669 Y129.541 E0.02231
G1 X126.211 Y127.084 E0.15414
G1 X125.708 Y127.084 E0.02231
G1 X128.166 Y129.541 E0.15414
G1 X127.663 Y129.541 E0.02231
G1 X125.205 Y127.084 E0.15414
G1 X124.702 Y127.084 E0.02231
G1 X127.160 Y129.541 E0.15414
G1 X126.657 Y129.541 E0.02231
G1 X124.200 Y127.084 E0.15414
G1 X123.697 Y127.084 E0.02231
G1 X126.154 Y129.541 E0.15414
G1 X125.651 Y129.541 E0.02231
G1 X123.194 Y127.084 E0.15414
G1 X122.691 Y127.084 E0.02231
G1 X125.148 Y129.541 E0.15414
G1 X124.645 Y129.541 E0.02231
G1 X122.188 Y127.084 E0.15414
G1 X121.685 Y127.084 E0.02231
G1 X124.142 Y129.541 E0.15414
G1 X123.639 Y129.541 E0.02231
G1 X121.182 Y127.084 E0.15414
G1 X120.679 Y127.084 E0.02231
G1 X123.136 Y129.541 E0.15414
G1 X122.633 Y129.541 E0.02231
G1 X120.176 Y127.084 E0.15414
G1 X119.673 Y127.084 E0.02231
G1 X122.130 Y129.541 E0.15414
G1 X121.627 Y129.541 E0.02231
G1 X119.170 Y127.084 E0.15414
G1 X118.667 Y127.084 E0.02231
G1 X121.124 Y129.541 E0.15414
G1 X120.621 Y129.541 E0.02231
G1 X118.164 Y127.084 E0.15414
G1 X117.661 Y127.084 E0.02231
G1 X120.118 Y129.541 E0.15414
G1 X119.615 Y129.541 E0.02231
G1 X117.158 Y127.084 E0.15414
G1 X116.655 Y127.084 E0.02231
G1 X119.112 Y129.541 E0.15414
G1 X118.609 Y129.541 E0.02231
G1 X116.152 Y127.084 E0.15414
G1 X115.649 Y127.084 E0.02231
G1 X118.106 Y129.541 E0.15414
G1 X117.603 Y129.541 E0.02231
G1 X115.146 Y127.084 E0.15414
G1 X114.643 Y127.084 E0.02231
G1 X117.101 Y129.541 E0.15414
G1 X116.598 Y129.541 E0.02231
G1 X114.140 Y127.084 E0.15414
G1 X113.637 Y127.084 E0.02231
