; generated by PrusaSlicer 2.2.0+ on 2020-04-10 at 02:43:34 UTC

;

; external perimeters extrusion width = 0.45mm
; perimeters extrusion width = 0.50mm
; infill extrusion width = 0.45mm
; solid infill extrusion width = 0.80mm
; top infill extrusion width = 0.40mm
; first layer extrusion width = 0.42mm

M73 P0 R10
M73 Q0 S20
M201 X1000 Y1000 Z1000 E5000 ; sets maximum accelerations, mm/sec^2
M203 X200 Y200 Z12 E160 ; sets maximum feedrates, mm/sec
M204 P1250 R1250 T1250 ; sets acceleration (P, T) and retract acceleration (R), mm/sec^2
M205 X8.00 Y8.00 Z0.40 E4.50 ; sets the jerk limits, mm/sec
M205 S0 T0 ; sets the minimum extruding and travel feed rate, mm/sec
M107
M862.3 P "MK3S" ; printer model check
M862.1 P0.4 ; nozzle diameter check
M115 U3.8.1 ; tell printer latest fw version
G90 ; use absolute coordinates
M83 ; extruder relative mode
M104 S245 ; set extruder temp
M140 S90 ; set bed temp
M190 S90 ; wait for bed temp
M109 S245 ; wait for extruder temp
G28 W ; home all without mesh bed level
G80 ; mesh bed leveling
G1 Y-3.0 F1000.0 ; go outside print area
G92 E0.0
G1 X60.0 E9.0 F1000.0 ; intro line
M73 Q0 S20
M73 P0 R10
G1 X100.0 E12.5 F1000.0 ; intro line
G92 E0.0
M221 S95
G21 ; set units to millimeters
G90 ; use absolute coordinates
M83 ; use relative distances for extrusion
M900 K45 ; Filament gcode
;BEFORE_LAYER_CHANGE
G92 E0.0
; starting change to layer 0, at 0.2mm
;0.2

G1 Z0.200 F12000.000
;AFTER_LAYER_CHANGE
; starting layer 0, at 0.2mm
;0.2

snap
; printing object Shape-Cylinder id:0 copy 0
G1 E-1.40000 F2100.00000
G1 Z0.400 F12000.000
G1 X113.838 Y95.297
G1 Z0.200
G1 E1.40000 F2100.00000
M204 S1000
G1 F1200.000
G1 X114.362 Y94.725 E0.02431
G1 X114.726 Y94.361 E0.01616
G1 X115.103 Y94.010 E0.01616
G1 X115.692 Y93.506 E0.02431
G1 X116.307 Y93.035 E0.02428
G1 X116.945 Y92.596 E0.02428
G1 X117.605 Y92.192 E0.02428
G1 X118.286 Y91.822 E0.02431
G1 X118.749 Y91.596 E0.01613
G1 X119.460 Y91.287 E0.02431
G1 X120.185 Y91.016 E0.02428
G1 X120.923 Y90.783 E0.02428
G1 X121.673 Y90.589 E0.02428
G1 X122.433 Y90.435 E0.02431
G1 X122.941 Y90.354 E0.01613
G1 X123.711 Y90.266 E0.02431
G1 X124.484 Y90.219 E0.02428
G1 X125.258 Y90.212 E0.02428
G1 X126.032 Y90.246 E0.02428
G1 X126.802 Y90.320 E0.02428
G1 X127.568 Y90.435 E0.02428
G1 X128.327 Y90.589 E0.02428
G1 X129.077 Y90.783 E0.02428
G1 X129.815 Y91.016 E0.02428
G1 X130.541 Y91.287 E0.02431
G1 X131.015 Y91.488 E0.01613
G1 X131.714 Y91.822 E0.02431
G1 X132.395 Y92.192 E0.02428
G1 X133.056 Y92.597 E0.02431
G1 X133.482 Y92.884 E0.01613
G1 X134.106 Y93.345 E0.02431
G1 X134.703 Y93.838 E0.02428
G1 X135.275 Y94.362 E0.02431
G1 X135.639 Y94.726 E0.01616
G1 X135.990 Y95.103 E0.01616
G1 X136.494 Y95.692 E0.02431
G1 X136.965 Y96.307 E0.02428
G1 X137.404 Y96.945 E0.02428
G1 X137.808 Y97.605 E0.02428
G1 X138.178 Y98.286 E0.02431
G1 X138.404 Y98.749 E0.01613
G1 X138.713 Y99.460 E0.02431
G1 X138.984 Y100.185 E0.02428
G1 X139.217 Y100.923 E0.02428
G1 X139.411 Y101.673 E0.02428
G1 X139.565 Y102.433 E0.02431
G1 X139.646 Y102.941 E0.01613
G1 X139.734 Y103.711 E0.02431
G1 X139.781 Y104.484 E0.02428
G1 X139.788 Y105.258 E0.02428
G1 X139.754 Y106.032 E0.02428
G1 X139.680 Y106.802 E0.02428
G1 X139.565 Y107.568 E0.02428
G1 X139.411 Y108.327 E0.02428
G1 X139.217 Y109.077 E0.02428
G1 X138.984 Y109.815 E0.02428
G1 X138.713 Y110.541 E0.02431
G1 X138.512 Y111.015 E0.01613
G1 X138.178 Y111.714 E0.02431
G1 X137.808 Y112.395 E0.02428
G1 X137.403 Y113.056 E0.02431
G1 X137.116 Y113.482 E0.01613
G1 X136.655 Y114.106 E0.02431
G1 X136.162 Y114.703 E0.02428
G1 X135.638 Y115.275 E0.02431
G1 X135.274 Y115.639 E0.01616
G1 X134.897 Y115.990 E0.01616
G1 X134.308 Y116.494 E0.02431
G1 X133.693 Y116.965 E0.02428
G1 X133.055 Y117.404 E0.02428
G1 X132.395 Y117.808 E0.02428
G1 X131.714 Y118.178 E0.02431
G1 X131.251 Y118.404 E0.01613
G1 X130.540 Y118.713 E0.02431
G1 X129.815 Y118.984 E0.02428
G1 X129.077 Y119.217 E0.02428
G1 X128.327 Y119.411 E0.02428
G1 X127.567 Y119.565 E0.02431
G1 X127.059 Y119.646 E0.01613
G1 X126.289 Y119.734 E0.02431
G1 X125.516 Y119.781 E0.02428
G1 X124.742 Y119.788 E0.02428
G1 X123.968 Y119.754 E0.02428
G1 X123.198 Y119.680 E0.02428
G1 X122.432 Y119.565 E0.02428
G1 X121.673 Y119.411 E0.02428
G1 X120.923 Y119.217 E0.02428
G1 X120.185 Y118.984 E0.02428
G1 X119.459 Y118.713 E0.02431
G1 X118.985 Y118.512 E0.01613
G1 X118.286 Y118.178 E0.02431
G1 X117.605 Y117.808 E0.02428
G1 X116.944 Y117.403 E0.02431
G1 X116.518 Y117.116 E0.01613
G1 X115.894 Y116.655 E0.02431
G1 X115.297 Y116.162 E0.02428
G1 X114.725 Y115.638 E0.02431
G1 X114.361 Y115.274 E0.01616
G1 X114.010 Y114.897 E0.01616
G1 X113.506 Y114.308 E0.02431
G1 X113.035 Y113.693 E0.02428
G1 X112.596 Y113.055 E0.02428
G1 X112.192 Y112.395 E0.02428
G1 X111.822 Y111.714 E0.02431
G1 X111.596 Y111.251 E0.01613
G1 X111.287 Y110.540 E0.02431
G1 X111.016 Y109.815 E0.02428
G1 X110.783 Y109.077 E0.02428
G1 X110.589 Y108.327 E0.02428
G1 X110.435 Y107.567 E0.02431
G1 X110.354 Y107.059 E0.01613
G1 X110.266 Y106.289 E0.02431
G1 X110.219 Y105.516 E0.02428
G1 X110.212 Y104.742 E0.02428
G1 X110.246 Y103.968 E0.02428
G1 X110.320 Y103.198 E0.02428
G1 X110.435 Y102.432 E0.02428
G1 X110.589 Y101.673 E0.02428
G1 X110.783 Y100.923 E0.02428
G1 X111.016 Y100.185 E0.02428
G1 X111.287 Y99.459 E0.02431
G1 X111.488 Y98.985 E0.01613
G1 X111.822 Y98.286 E0.02431
G1 X112.192 Y97.605 E0.02428
G1 X112.597 Y96.944 E0.02431
G1 X112.884 Y96.518 E0.01613
G1 X113.345 Y95.894 E0.02431
G1 X113.800 Y95.343 E0.02240
G1 F9600.000
G1 X114.362 Y94.725 E-0.17355
G1 X114.726 Y94.361 E-0.10709
G1 X115.103 Y94.010 E-0.10709
G1 X115.692 Y93.506 E-0.16110
G1 X116.307 Y93.035 E-0.16091
G1 X116.945 Y92.596 E-0.16091
G1 X117.605 Y92.192 E-0.16091
G1 X118.286 Y91.822 E-0.16110
G1 X118.749 Y91.596 E-0.10690
G1 X118.883 Y91.538 E-0.03043
G1 E-0.07000 F2100.00000
G1 Z0.400 F12000.000
G1 X136.848 Y96.308
G1 Z0.200
G1 E1.40000 F2100.00000
G1 F1200.000
G1 X135.089 Y94.550 E0.07799
G1 X134.530 Y94.037 E0.02381
G1 X133.943 Y93.553 E0.02385
G1 X133.330 Y93.100 E0.02392
G1 X132.685 Y92.679 E0.02418
G1 X137.321 Y97.315 E0.20569
G1 X137.580 Y97.737 E0.01551
G1 X138.005 Y98.532 E0.02827
G1 X131.471 Y91.998 E0.28984
G1 X130.492 Y91.553 E0.03372
G1 X138.446 Y99.507 E0.35281
G1 X138.761 Y100.356 E0.02842
G1 X129.644 Y91.239 E0.40443
G1 X128.876 Y91.004 E0.02521
G1 X138.996 Y101.124 E0.44895
G1 X139.175 Y101.836 E0.02302
G1 X128.164 Y90.825 E0.48845
G1 X127.496 Y90.691 E0.02137
G1 X139.310 Y102.505 E0.52406
G1 X139.402 Y103.130 E0.01984
G1 X126.869 Y90.597 E0.55598
G1 X126.272 Y90.534 E0.01880
G1 X139.470 Y103.732 E0.58546
G1 X139.505 Y104.301 E0.01786
G1 X125.700 Y90.496 E0.61239
G1 X125.148 Y90.477 E0.01733
G1 X139.520 Y104.849 E0.63754
G1 X139.518 Y105.381 E0.01667
G1 X124.619 Y90.482 E0.66091
G1 X124.110 Y90.506 E0.01598
G1 X139.496 Y105.892 E0.68250
G1 X139.455 Y106.384 E0.01550
G1 X123.614 Y90.543 E0.70272
G1 X123.135 Y90.598 E0.01512
G1 X139.403 Y106.866 E0.72168
G1 X139.334 Y107.330 E0.01472
G1 X122.668 Y90.665 E0.73930
G1 X122.218 Y90.748 E0.01437
G1 X139.252 Y107.782 E0.75566
G1 X139.162 Y108.226 E0.01419
G1 X121.774 Y90.838 E0.77132
G1 X121.349 Y90.946 E0.01377
G1 X139.054 Y108.651 E0.78543
G1 X138.942 Y109.072 E0.01366
G1 X120.928 Y91.058 E0.79909
G1 X120.522 Y91.186 E0.01334
G1 X138.814 Y109.478 E0.81141
G1 X138.679 Y109.877 E0.01321
G1 X120.123 Y91.321 E0.82315
G1 X119.735 Y91.466 E0.01300
G1 X138.534 Y110.265 E0.83393
G1 X138.382 Y110.646 E0.01287
G1 X119.356 Y91.620 E0.84399
G1 X118.984 Y91.782 E0.01272
G1 X138.218 Y111.016 E0.85325
G1 X138.046 Y111.378 E0.01255
G1 X118.621 Y91.952 E0.86171
G1 X118.267 Y92.132 E0.01244
G1 X137.868 Y111.733 E0.86947
G1 X137.680 Y112.078 E0.01234
G1 X117.922 Y92.320 E0.87648
G1 X117.583 Y92.515 E0.01226
G1 X137.485 Y112.417 E0.88288
G1 X137.283 Y112.748 E0.01217
G1 X117.252 Y92.717 E0.88856
G1 X116.929 Y92.927 E0.01210
G1 X137.074 Y113.073 E0.89364
G1 X136.857 Y113.389 E0.01204
G1 X116.612 Y93.145 E0.89803
G1 X116.304 Y93.370 E0.01198
G1 X136.630 Y113.696 E0.90166
G1 X136.400 Y113.999 E0.01195
G1 X116.002 Y93.601 E0.90487
G1 X115.707 Y93.840 E0.01190
G1 X136.159 Y114.292 E0.90723
G1 X135.915 Y114.582 E0.01188
G1 X115.420 Y94.086 E0.90919
G1 X115.140 Y94.340 E0.01185
G1 X135.660 Y114.860 E0.91026
G1 X135.402 Y115.136 E0.01184
G1 X114.869 Y94.602 E0.91086
G1 X114.598 Y94.864 E0.01183
G1 X135.131 Y115.398 E0.91086
G1 X134.860 Y115.660 E0.01183
G1 X114.340 Y95.140 E0.91026
G1 X114.085 Y95.418 E0.01184
G1 X134.580 Y115.914 E0.90919
G1 X134.292 Y116.160 E0.01187
G1 X113.841 Y95.708 E0.90723
M73 Q5 S19
G1 X113.600 Y96.001 E0.01189
G1 X133.998 Y116.399 E0.90487
M73 P11 R9
G1 X133.696 Y116.630 E0.01194
G1 X113.370 Y96.305 E0.90166
G1 X113.143 Y96.611 E0.01196
G1 X133.387 Y116.855 E0.89803
G1 X133.071 Y117.073 E0.01203
G1 X112.926 Y96.927 E0.89364
G1 X112.717 Y97.252 E0.01211
G1 X132.748 Y117.283 E0.88856
G1 X132.417 Y117.485 E0.01217
G1 X112.515 Y97.583 E0.88288
G1 X112.320 Y97.922 E0.01226
G1 X132.078 Y117.680 E0.87648
G1 X131.733 Y117.868 E0.01234
G1 X112.132 Y98.267 E0.86947
G1 X111.954 Y98.622 E0.01246
G1 X131.379 Y118.048 E0.86171
G1 X131.016 Y118.218 E0.01258
G1 X111.782 Y98.984 E0.85325
G1 X111.618 Y99.354 E0.01270
G1 X130.644 Y118.380 E0.84399
G1 X130.265 Y118.534 E0.01284
G1 X111.466 Y99.735 E0.83393
G1 X111.321 Y100.123 E0.01300
G1 X129.877 Y118.679 E0.82315
G1 X129.478 Y118.814 E0.01321
G1 X111.186 Y100.522 E0.81141
G1 X111.058 Y100.928 E0.01334
G1 X129.072 Y118.942 E0.79909
G1 X128.651 Y119.054 E0.01366
G1 X110.946 Y101.349 E0.78542
G1 X110.838 Y101.774 E0.01377
G1 X128.226 Y119.162 E0.77132
G1 X127.782 Y119.252 E0.01419
G1 X110.748 Y102.218 E0.75566
G1 X110.666 Y102.670 E0.01440
G1 X127.332 Y119.335 E0.73930
G1 X126.865 Y119.402 E0.01479
G1 X110.597 Y103.134 E0.72167
G1 X110.545 Y103.616 E0.01520
G1 X126.386 Y119.457 E0.70271
G1 X125.890 Y119.494 E0.01562
G1 X110.504 Y104.108 E0.68250
G1 X110.482 Y104.619 E0.01605
G1 X125.381 Y119.518 E0.66091
G1 X124.852 Y119.523 E0.01659
G1 X110.480 Y105.151 E0.63754
G1 X110.495 Y105.699 E0.01721
G1 X124.300 Y119.504 E0.61239
G1 X123.727 Y119.466 E0.01799
G1 X110.530 Y106.268 E0.58546
G1 X110.598 Y106.870 E0.01901
G1 X123.131 Y119.403 E0.55597
G1 X122.504 Y119.309 E0.01989
G1 X110.690 Y107.496 E0.52406
G1 X110.825 Y108.164 E0.02139
G1 X121.836 Y119.175 E0.48844
G1 X121.124 Y118.996 E0.02302
G1 X111.004 Y108.876 E0.44895
G1 X111.239 Y109.644 E0.02521
G1 X120.356 Y118.761 E0.40443
G1 X119.508 Y118.447 E0.02837
G1 X111.554 Y110.493 E0.35281
G1 X111.995 Y111.468 E0.03355
G1 X118.529 Y118.002 E0.28984
G1 X117.737 Y117.580 E0.02815
G1 X117.315 Y117.321 E0.01551
G1 X112.679 Y112.685 E0.20568
G1 X113.248 Y113.538 E0.03219
G1 X113.711 Y114.141 E0.02385
G1 X114.205 Y114.720 E0.02385
G1 X116.292 Y116.832 E0.09314
; stop printing object Shape-Cylinder id:0 copy 0
;BEFORE_LAYER_CHANGE
G92 E0.0
; starting change to layer 1, at 0.5mm
;0.5

G1 Z0.200 F12000.000
;AFTER_LAYER_CHANGE
; starting layer 1, at 0.5mm
;0.5

snap
; printing object Shape-Cylinder id:0 copy 0
M204 S800
G1 F3000
M117 F3000 = 50mm/s = 5.8mm3/s
G1 Z0.202 X115.702 Y116.483 E0.03287
G1 Z0.205 X115.114 Y115.980 E0.03723
G1 Z0.207 X114.553 Y115.447 E0.03720
G1 Z0.210 X114.020 Y114.886 E0.03720
G1 Z0.212 X113.518 Y114.298 E0.03720
G1 Z0.215 X113.047 Y113.684 E0.03720
G1 Z0.217 X112.609 Y113.047 E0.03720
G1 Z0.220 X112.204 Y112.387 E0.03725
G1 Z0.221 X111.955 Y111.937 E0.02473
G1 Z0.224 X111.609 Y111.244 E0.03723
G1 Z0.226 X111.301 Y110.534 E0.03725
G1 Z0.228 X111.116 Y110.054 E0.02473
G1 Z0.231 X110.871 Y109.320 E0.03723
G1 Z0.233 X110.664 Y108.574 E0.03720
G1 Z0.236 X110.497 Y107.819 E0.03720
G1 Z0.238 X110.369 Y107.056 E0.03720
G1 Z0.241 X110.281 Y106.287 E0.03725
G1 Z0.242 X110.245 Y105.774 E0.02473
G1 Z0.245 X110.225 Y105.000 E0.03723
G1 Z0.247 X110.245 Y104.226 E0.03725
G1 Z0.249 X110.281 Y103.713 E0.02471
G1 Z0.251 X110.369 Y102.944 E0.03725
G1 Z0.254 X110.497 Y102.181 E0.03720
G1 Z0.256 X110.664 Y101.426 E0.03720
G1 Z0.259 X110.871 Y100.680 E0.03720
G1 Z0.261 X111.116 Y99.946 E0.03725
G1 Z0.263 X111.301 Y99.466 E0.02473
G1 Z0.266 X111.609 Y98.756 E0.03723
G1 Z0.268 X111.955 Y98.064 E0.03720
G1 Z0.271 X112.335 Y97.390 E0.03720
G1 Z0.273 X112.751 Y96.738 E0.03720
G1 Z0.276 X113.201 Y96.107 E0.03725
G1 Z0.277 X113.517 Y95.702 E0.02473
G1 Z0.280 X114.020 Y95.114 E0.03723
G1 Z0.282 X114.553 Y94.553 E0.03720
G1 Z0.285 X115.114 Y94.020 E0.03720
G1 Z0.287 X115.702 Y93.518 E0.03720
G1 Z0.290 X116.316 Y93.047 E0.03720
G1 Z0.292 X116.953 Y92.609 E0.03720
G1 Z0.295 X117.613 Y92.204 E0.03725
G1 Z0.296 X118.063 Y91.955 E0.02473
G1 Z0.299 X118.756 Y91.609 E0.03723
G1 Z0.301 X119.465 Y91.301 E0.03720
G1 Z0.304 X120.190 Y91.030 E0.03720
G1 Z0.306 X120.928 Y90.797 E0.03725
G1 Z0.308 X121.425 Y90.664 E0.02473
G1 Z0.311 X122.181 Y90.497 E0.03723
G1 Z0.313 X122.944 Y90.369 E0.03720
G1 Z0.316 X123.712 Y90.281 E0.03720
G1 Z0.318 X124.485 Y90.234 E0.03725
G1 Z0.320 X124.999 Y90.225 E0.02473
G1 Z0.322 X125.773 Y90.245 E0.03723
G1 Z0.325 X126.544 Y90.306 E0.03720
G1 Z0.327 X127.311 Y90.407 E0.03720
G1 Z0.330 X128.072 Y90.548 E0.03720
G1 Z0.332 X128.825 Y90.729 E0.03725
G1 Z0.334 X129.319 Y90.870 E0.02471
G1 Z0.336 X130.053 Y91.116 E0.03725
G1 Z0.339 X130.774 Y91.400 E0.03725
G1 Z0.341 X131.244 Y91.609 E0.02473
G1 Z0.343 X131.936 Y91.955 E0.03723
G1 Z0.346 X132.610 Y92.335 E0.03720
G1 Z0.348 X133.262 Y92.751 E0.03720
G1 Z0.351 X133.893 Y93.201 E0.03725
G1 Z0.352 X134.298 Y93.517 E0.02473
G1 Z0.355 X134.886 Y94.020 E0.03723
G1 Z0.357 X135.447 Y94.553 E0.03720
G1 Z0.360 X135.980 Y95.114 E0.03720
G1 Z0.362 X136.482 Y95.702 E0.03720
G1 Z0.365 X136.953 Y96.316 E0.03720
G1 Z0.367 X137.391 Y96.953 E0.03720
G1 Z0.370 X137.796 Y97.613 E0.03725
G1 Z0.371 X138.045 Y98.063 E0.02473
G1 Z0.374 X138.391 Y98.756 E0.03723
G1 Z0.376 X138.699 Y99.465 E0.03720
G1 Z0.379 X138.970 Y100.190 E0.03720
G1 Z0.381 X139.203 Y100.928 E0.03725
G1 Z0.383 X139.336 Y101.425 E0.02473
G1 Z0.386 X139.503 Y102.181 E0.03723
G1 Z0.388 X139.631 Y102.944 E0.03720
G1 Z0.391 X139.719 Y103.713 E0.03725
G1 Z0.392 X139.755 Y104.226 E0.02473
G1 Z0.395 X139.775 Y105.000 E0.03723
G1 Z0.397 X139.755 Y105.774 E0.03725
G1 Z0.399 X139.719 Y106.287 E0.02471
G1 Z0.401 X139.631 Y107.056 E0.03725
G1 Z0.404 X139.503 Y107.819 E0.03720
G1 Z0.406 X139.336 Y108.574 E0.03720
G1 Z0.409 X139.129 Y109.320 E0.03720
G1 Z0.411 X138.884 Y110.054 E0.03725
G1 Z0.413 X138.699 Y110.534 E0.02473
G1 Z0.416 X138.391 Y111.244 E0.03723
G1 Z0.418 X138.045 Y111.936 E0.03720
G1 Z0.421 X137.665 Y112.610 E0.03720
G1 Z0.423 X137.249 Y113.262 E0.03720
G1 Z0.426 X136.799 Y113.893 E0.03725
G1 Z0.427 X136.483 Y114.298 E0.02473
G1 Z0.430 X135.980 Y114.886 E0.03723
G1 Z0.432 X135.447 Y115.447 E0.03720
G1 Z0.435 X134.886 Y115.980 E0.03720
G1 Z0.437 X134.298 Y116.482 E0.03720
G1 Z0.440 X133.684 Y116.953 E0.03720
G1 Z0.442 X133.047 Y117.391 E0.03720
G1 Z0.445 X132.387 Y117.796 E0.03725
G1 Z0.446 X131.937 Y118.045 E0.02473
G1 Z0.449 X131.244 Y118.391 E0.03723
G1 Z0.451 X130.534 Y118.699 E0.03725
G1 Z0.453 X130.054 Y118.884 E0.02473
G1 Z0.456 X129.320 Y119.129 E0.03723
G1 Z0.458 X128.574 Y119.336 E0.03720
G1 Z0.461 X127.819 Y119.503 E0.03720
G1 Z0.463 X127.056 Y119.631 E0.03720
G1 Z0.466 X126.287 Y119.719 E0.03725
G1 Z0.467 X125.774 Y119.755 E0.02473
G1 Z0.470 X125.000 Y119.775 E0.03723
G1 Z0.472 X124.226 Y119.755 E0.03725
G1 Z0.474 X123.713 Y119.719 E0.02471
G1 Z0.476 X122.944 Y119.631 E0.03725
G1 Z0.479 X122.181 Y119.503 E0.03720
G1 Z0.481 X121.426 Y119.336 E0.03720
G1 Z0.484 X120.680 Y119.129 E0.03720
G1 Z0.486 X119.946 Y118.884 E0.03725
G1 Z0.488 X119.466 Y118.699 E0.02473
G1 Z0.491 X118.756 Y118.391 E0.03723
G1 Z0.493 X118.064 Y118.045 E0.03720
G1 Z0.496 X117.390 Y117.665 E0.03720
G1 Z0.498 X116.738 Y117.249 E0.03720
G1 Z0.500 X116.245 Y116.897 E0.02911
M204 S1000
; stop printing object Shape-Cylinder id:0 copy 0
M106 S38.25
;BEFORE_LAYER_CHANGE
G92 E0.0
; starting change to layer 2, at 0.8mm
;0.8

G1 Z0.500 F12000.000
;AFTER_LAYER_CHANGE
; starting layer 2, at 0.8mm
;0.8

snap
; printing object Shape-Cylinder id:0 copy 0
M204 S800
G1 F3000
