; generated by PrusaSlicer 2.1.0+ on 2019-12-25 at 08:54:53 UTC

;

; external perimeters extrusion width = 0.45mm
; perimeters extrusion width = 0.45mm
; infill extrusion width = 0.45mm
; solid infill extrusion width = 0.45mm
; top infill extrusion width = 0.40mm
; first layer extrusion width = 0.42mm

M73 P0 R40
M73 Q0 S41
M201 X1000 Y1000 Z1000 E5000 ; sets maximum accelerations, mm/sec^2
M203 X200 Y200 Z12 E120 ; sets maximum feedrates, mm/sec
M204 P1250 R1250 T1250 ; sets acceleration (P, T) and retract acceleration (R), mm/sec^2
M205 X8.00 Y8.00 Z0.40 E1.50 ; sets the jerk limits, mm/sec
M205 S0 T0 ; sets the minimum extruding and travel feed rate, mm/sec
M107
M862.3 P "MK3S" ; printer model check
M862.1 P0.4 ; nozzle diameter check
M115 U3.8.1 ; tell printer latest fw version
G90 ; use absolute coordinates
M83 ; extruder relative mode
M104 S215 ; set extruder temp
M140 S60 ; set bed temp
M190 S60 ; wait for bed temp
M109 S215 ; wait for extruder temp
G28 W ; home all without mesh bed level
G80 ; mesh bed leveling
G1 Y-3.0 F1000.0 ; go outside print area
G92 E0.0
G1 X60.0 E9.0 F1000.0 ; intro line
M73 Q0 S41
M73 P0 R40
G1 X100.0 E12.5 F1000.0 ; intro line
G92 E0.0
M221 S95
G21 ; set units to millimeters
G90 ; use absolute coordinates
M83 ; use relative distances for extrusion
M900 K30 ; Filament gcode
;BEFORE_LAYER_CHANGE
G92 E0.0
;0.2


G1 E-0.80000 F2100.00000
G1 Z0.600 F10800.000
;AFTER_LAYER_CHANGE
;0.2
snap
G1 X44.410 Y56.478
G1 Z0.200
G1 E0.80000 F2160.00000
M204 S1000
G1 F1200
G1 X46.395 Y55.146 E0.07495
G1 X46.987 Y54.890 E0.02021
G1 X48.980 Y54.386 E0.06445
G1 X49.451 Y54.332 E0.01487
G1 X199.467 Y54.332 E4.70366
G1 X201.693 Y54.511 E0.07000
G1 X202.294 Y54.672 E0.01953
G1 X204.438 Y55.645 E0.07380
G1 X206.184 Y57.212 E0.07357
G1 X206.585 Y57.712 E0.02010
G1 X207.680 Y59.776 E0.07325
G1 X208.145 Y62.394 E0.08337
G1 X208.146 Y147.588 E2.67119
G1 X207.712 Y150.135 E0.08100
G1 X206.610 Y152.243 E0.07459
G1 X206.213 Y152.760 E0.02044
G1 X204.395 Y154.383 E0.07642
G1 X201.987 Y155.433 E0.08237
G1 X199.480 Y155.668 E0.07895
G1 X49.423 Y155.668 E4.70492
G1 X46.980 Y155.108 E0.07860
G1 X46.383 Y154.847 E0.02044
G1 X44.400 Y153.512 E0.07494
G1 X42.822 Y151.508 E0.07998
G1 X41.958 Y149.160 E0.07844
G1 X41.852 Y148.510 E0.02066
G1 X41.854 Y61.432 E2.73025
G1 X41.946 Y60.878 E0.01760
G1 X42.612 Y58.934 E0.06445
G1 X42.909 Y58.362 E0.02021
G1 X44.373 Y56.525 E0.07364
G1 F8640
G1 X46.395 Y55.146 E-0.56516
G1 X46.987 Y54.890 E-0.14883
G1 X47.180 Y54.841 E-0.04601
G1 E-0.04000 F2100.00000
G1 Z0.800 F10800.000
G1 X105.072 Y117.613
G1 Z0.200
G1 E0.80000 F2160.00000
G1 F1200
G1 X128.246 Y117.613 E0.72661
G1 X128.246 Y140.787 E0.72661
G1 X105.072 Y140.787 E0.72661
G1 X105.072 Y117.673 E0.72473
G1 X105.449 Y117.990 F10800.000
G1 F1200
G1 X127.869 Y117.990 E0.70296
G1 X127.869 Y140.410 E0.70296
G1 X105.449 Y140.410 E0.70296
G1 X105.449 Y118.050 E0.70108
G1 X105.346 Y117.604 F10800.000
G1 F8640
G1 X108.741 Y118.041 E-0.76000
G1 E-0.04000 F2100.00000
G1 Z0.800 F10800.000
G1 X105.072 Y105.413
G1 Z0.200
G1 E0.80000 F2160.00000
G1 F1200
G1 X109.278 Y105.413 E0.13188
G1 X116.659 Y113.465 E0.34249
G1 X124.040 Y105.413 E0.34249
G1 X128.246 Y105.413 E0.13188
G1 X128.246 Y116.587 E0.35036
G1 X105.072 Y116.587 E0.72661
G1 X105.072 Y105.473 E0.34848
G1 X105.449 Y105.790 F10800.000
G1 F1200
G1 X109.112 Y105.790 E0.11485
G1 X116.659 Y114.023 E0.35019
G1 X124.206 Y105.790 E0.35019
G1 X127.869 Y105.790 E0.11485
G1 X127.869 Y116.210 E0.32671
G1 X105.449 Y116.210 E0.70296
G1 X105.449 Y105.850 E0.32483
G1 X105.301 Y105.418 F10800.000
G1 F8640
G1 X108.740 Y105.796 E-0.76000
G1 E-0.04000 F2100.00000
G1 Z0.800 F10800.000
G1 X105.072 Y93.413
G1 Z0.200
G1 E0.80000 F2160.00000
G1 F1200
G1 X128.246 Y93.413 E0.72661
G1 X128.246 Y104.587 E0.35036
G1 X124.040 Y104.587 E0.13188
G1 X116.659 Y96.535 E0.34249
G1 X109.278 Y104.587 E0.34249
G1 X105.072 Y104.587 E0.13188
G1 X105.072 Y93.473 E0.34848
G1 X105.449 Y93.790 F10800.000
G1 F1200
G1 X127.869 Y93.790 E0.70296
G1 X127.869 Y104.210 E0.32671
G1 X124.206 Y104.210 E0.11485
G1 X116.659 Y95.977 E0.35019
G1 X109.112 Y104.210 E0.35019
G1 X105.449 Y104.210 E0.11485
G1 X105.449 Y93.850 E0.32483
G1 X105.404 Y93.393 F10800.000
G1 F8640
G1 X108.741 Y93.841 E-0.76000
G1 E-0.04000 F2100.00000
G1 Z0.800 F10800.000
G1 X105.072 Y81.213
G1 Z0.200
G1 E0.80000 F2160.00000
G1 F1200
G1 X109.468 Y81.213 E0.13783
G1 X109.468 Y83.996 E0.08726
G1 X116.659 Y89.081 E0.27615
G1 X123.850 Y83.996 E0.27615
G1 X123.850 Y81.213 E0.08726
G1 X128.246 Y81.213 E0.13783
G1 X128.246 Y92.387 E0.35036
G1 X105.072 Y92.387 E0.72661
G1 X105.072 Y81.273 E0.34848
M73 Q2 S40
M73 P2 R39
G1 X105.449 Y81.590 F10800.000
G1 F1200
G1 X109.091 Y81.590 E0.11419
G1 X109.091 Y84.191 E0.08156
G1 X116.659 Y89.543 E0.29063
G1 X124.227 Y84.191 E0.29063
G1 X124.227 Y81.590 E0.08156
G1 X127.869 Y81.590 E0.11419
G1 X127.869 Y92.010 E0.32671
G1 X105.449 Y92.010 E0.70296
G1 X105.449 Y81.650 E0.32483
G1 X105.301 Y81.218 F10800.000
G1 F8640
G1 X108.740 Y81.596 E-0.76000
G1 E-0.04000 F2100.00000
G1 Z0.800 F10800.000
G1 X105.072 Y69.213
G1 Z0.200
G1 E0.80000 F2160.00000
G1 F1200
G1 X128.246 Y69.213 E0.72661
G1 X128.246 Y80.387 E0.35036
G1 X123.850 Y80.387 E0.13783
G1 X123.850 Y76.826 E0.11166
G1 X116.659 Y71.741 E0.27615
G1 X109.468 Y76.826 E0.27615
G1 X109.468 Y80.387 E0.11166
G1 X105.072 Y80.387 E0.13783
G1 X105.072 Y69.273 E0.34848
G1 X105.449 Y69.590 F10800.000
G1 F1200
G1 X127.869 Y69.590 E0.70296
G1 X127.869 Y80.010 E0.32671
G1 X124.227 Y80.010 E0.11419
G1 X124.227 Y76.631 E0.10596
G1 X116.659 Y71.279 E0.29063
G1 X109.091 Y76.631 E0.29063
G1 X109.091 Y80.010 E0.10596
G1 X105.449 Y80.010 E0.11419
G1 X105.449 Y69.650 E0.32483
G1 X105.404 Y69.193 F10800.000
G1 F8640
G1 X108.741 Y69.641 E-0.76000
G1 E-0.04000 F2100.00000
G1 Z0.800 F10800.000
G1 X80.872 Y69.213
G1 Z0.200
G1 E0.80000 F2160.00000
G1 F1200
G1 X104.046 Y69.213 E0.72661
G1 X104.046 Y80.387 E0.35036
G1 X99.650 Y80.387 E0.13783
G1 X99.650 Y76.826 E0.11166
G1 X92.459 Y71.741 E0.27615
G1 X85.268 Y76.826 E0.27615
G1 X85.268 Y80.387 E0.11166
G1 X80.872 Y80.387 E0.13783
G1 X80.872 Y69.273 E0.34848
G1 X81.249 Y69.590 F10800.000
G1 F1200
G1 X103.669 Y69.590 E0.70296
G1 X103.669 Y80.010 E0.32671
G1 X100.027 Y80.010 E0.11419
G1 X100.027 Y76.631 E0.10596
G1 X92.459 Y71.279 E0.29063
G1 X84.891 Y76.631 E0.29063
G1 X84.891 Y80.010 E0.10596
G1 X81.249 Y80.010 E0.11419
G1 X81.249 Y69.650 E0.32483
G1 X81.204 Y69.193 F10800.000
G1 F8640
G1 X84.541 Y69.641 E-0.76000
G1 E-0.04000 F2100.00000
G1 Z0.800 F10800.000
G1 X80.872 Y81.213
G1 Z0.200
G1 E0.80000 F2160.00000
G1 F1200
G1 X85.268 Y81.213 E0.13783
G1 X85.268 Y83.996 E0.08726
G1 X92.459 Y89.081 E0.27615
G1 X99.650 Y83.996 E0.27615
G1 X99.650 Y81.213 E0.08726
G1 X104.046 Y81.213 E0.13783
G1 X104.046 Y92.387 E0.35036
G1 X80.872 Y92.387 E0.72661
G1 X80.872 Y81.273 E0.34848
G1 X81.249 Y81.590 F10800.000
G1 F1200
G1 X84.891 Y81.590 E0.11419
G1 X84.891 Y84.191 E0.08156
G1 X92.459 Y89.543 E0.29063
G1 X100.027 Y84.191 E0.29063
G1 X100.027 Y81.590 E0.08156
G1 X103.669 Y81.590 E0.11419
G1 X103.669 Y92.010 E0.32671
G1 X81.249 Y92.010 E0.70296
G1 X81.249 Y81.650 E0.32483
G1 X81.101 Y81.218 F10800.000
G1 F8640
G1 X84.540 Y81.596 E-0.76000
G1 E-0.04000 F2100.00000
G1 Z0.800 F10800.000
G1 X80.872 Y93.413
G1 Z0.200
G1 E0.80000 F2160.00000
G1 F1200
G1 X104.046 Y93.413 E0.72661
G1 X104.046 Y104.587 E0.35036
G1 X99.650 Y104.587 E0.13783
G1 X99.650 Y101.026 E0.11166
G1 X92.459 Y95.941 E0.27615
G1 X85.268 Y101.026 E0.27615
G1 X85.268 Y104.587 E0.11166
G1 X80.872 Y104.587 E0.13783
G1 X80.872 Y93.473 E0.34848
G1 X81.249 Y93.790 F10800.000
G1 F1200
G1 X103.669 Y93.790 E0.70296
G1 X103.669 Y104.210 E0.32671
G1 X100.027 Y104.210 E0.11419
G1 X100.027 Y100.831 E0.10596
G1 X92.459 Y95.479 E0.29063
G1 X84.891 Y100.831 E0.29063
G1 X84.891 Y104.210 E0.10596
G1 X81.249 Y104.210 E0.11419
G1 X81.249 Y93.850 E0.32483
G1 X81.204 Y93.393 F10800.000
G1 F8640
G1 X84.541 Y93.841 E-0.76000
G1 E-0.04000 F2100.00000
G1 Z0.800 F10800.000
G1 X80.872 Y105.413
G1 Z0.200
G1 E0.80000 F2160.00000
G1 F1200
G1 X85.268 Y105.413 E0.13783
G1 X85.268 Y108.196 E0.08726
G1 X92.459 Y113.281 E0.27615
G1 X99.650 Y108.196 E0.27615
G1 X99.650 Y105.413 E0.08726
G1 X104.046 Y105.413 E0.13783
G1 X104.046 Y116.587 E0.35036
G1 X80.872 Y116.587 E0.72661
G1 X80.872 Y105.473 E0.34848
G1 X81.249 Y105.790 F10800.000
G1 F1200
G1 X84.891 Y105.790 E0.11419
G1 X84.891 Y108.391 E0.08156
G1 X92.459 Y113.743 E0.29063
G1 X100.027 Y108.391 E0.29063
G1 X100.027 Y105.790 E0.08156
G1 X103.669 Y105.790 E0.11419
G1 X103.669 Y116.210 E0.32671
G1 X81.249 Y116.210 E0.70296
G1 X81.249 Y105.850 E0.32483
G1 X81.101 Y105.418 F10800.000
G1 F8640
G1 X84.540 Y105.796 E-0.76000
G1 E-0.04000 F2100.00000
G1 Z0.800 F10800.000
G1 X80.872 Y117.613
G1 Z0.200
G1 E0.80000 F2160.00000
G1 F1200
G1 X104.046 Y117.613 E0.72661
G1 X104.046 Y127.916 E0.32304
G1 X89.951 Y119.538 E0.51411
G1 X80.872 Y128.617 E0.40260
G1 X80.872 Y117.673 E0.34315
G1 X81.249 Y117.990 F10800.000
G1 F1200
G1 X103.669 Y117.990 E0.70296
G1 X103.669 Y127.253 E0.29044
G1 X89.892 Y119.064 E0.50252
G1 X81.249 Y127.707 E0.38325
G1 X81.249 Y118.050 E0.30279
G1 X81.064 Y117.636 F10800.000
G1 F8640
G1 X84.541 Y118.041 E-0.76000
G1 E-0.04000 F2100.00000
G1 Z0.800 F10800.000
G1 X83.772 Y125.957
G1 Z0.200
G1 E0.80000 F2160.00000
G1 F1200
G1 X89.767 Y119.962 E0.26581
G1 X104.046 Y128.450 E0.52085
G1 X104.046 Y140.787 E0.38682
G1 X80.872 Y140.787 E0.72661
G1 X80.872 Y130.903 E0.30992
G1 X94.459 Y138.666 E0.49064
G1 X101.599 Y131.436 E0.31863
G1 X89.941 Y124.919 E0.41878
G1 X83.772 Y130.527 E0.26142
G1 X83.772 Y126.017 E0.14142
M73 Q5 S39
M73 P5 R38
G1 X84.149 Y126.113 F10800.000
G1 F1200
G1 X89.826 Y120.436 E0.25173
G1 X103.669 Y128.664 E0.50493
G1 X103.669 Y140.410 E0.36827
G1 X81.249 Y140.410 E0.70296
G1 X81.249 Y131.552 E0.27772
G1 X94.523 Y139.138 E0.47936
G1 X102.216 Y131.349 E0.34325
G1 X89.889 Y124.457 E0.44281
G1 X84.149 Y129.675 E0.24320
G1 X84.149 Y126.173 E0.10979
G1 X83.786 Y125.946 F10800.000
G1 F8640
G1 X86.464 Y123.833 E-0.76000
G1 E-0.04000 F2100.00000
G1 Z0.800 F10800.000
G1 X56.672 Y117.613
G1 Z0.200
G1 E0.80000 F2160.00000
G1 F1200
G1 X79.846 Y117.613 E0.72661
G1 X79.846 Y140.787 E0.72661
G1 X56.672 Y140.787 E0.72661
G1 X56.672 Y117.673 E0.72473
G1 X57.049 Y117.990 F10800.000
G1 F1200
G1 X79.469 Y117.990 E0.70296
G1 X79.469 Y140.410 E0.70296
G1 X57.049 Y140.410 E0.70296
G1 X57.049 Y118.050 E0.70108
G1 X56.946 Y117.604 F10800.000
G1 F8640
G1 X60.341 Y118.041 E-0.76000
G1 E-0.04000 F2100.00000
G1 Z0.800 F10800.000
G1 X56.672 Y105.413
G1 Z0.200
G1 E0.80000 F2160.00000
G1 F1200
G1 X60.878 Y105.413 E0.13188
G1 X68.259 Y113.465 E0.34249
G1 X75.640 Y105.413 E0.34249
G1 X79.846 Y105.413 E0.13188
G1 X79.846 Y116.587 E0.35036
G1 X56.672 Y116.587 E0.72661
G1 X56.672 Y105.473 E0.34848
G1 X57.049 Y105.790 F10800.000
G1 F1200
G1 X60.712 Y105.790 E0.11485
G1 X68.259 Y114.023 E0.35019
G1 X75.806 Y105.790 E0.35019
G1 X79.469 Y105.790 E0.11485
G1 X79.469 Y116.210 E0.32671
G1 X57.049 Y116.210 E0.70296
G1 X57.049 Y105.850 E0.32483
G1 X56.901 Y105.418 F10800.000
G1 F8640
G1 X60.340 Y105.796 E-0.76000
G1 E-0.04000 F2100.00000
G1 Z0.800 F10800.000
G1 X56.672 Y93.413
G1 Z0.200
G1 E0.80000 F2160.00000
G1 F1200
G1 X79.846 Y93.413 E0.72661
G1 X79.846 Y104.587 E0.35036
G1 X75.640 Y104.587 E0.13188
G1 X68.259 Y96.535 E0.34249
G1 X60.878 Y104.587 E0.34249
G1 X56.672 Y104.587 E0.13188
G1 X56.672 Y93.473 E0.34848
G1 X57.049 Y93.790 F10800.000
G1 F1200
G1 X79.469 Y93.790 E0.70296
G1 X79.469 Y104.210 E0.32671
G1 X75.806 Y104.210 E0.11485
G1 X68.259 Y95.977 E0.35019
G1 X60.712 Y104.210 E0.35019
G1 X57.049 Y104.210 E0.11485
G1 X57.049 Y93.850 E0.32483
G1 X57.004 Y93.393 F10800.000
G1 F8640
G1 X60.341 Y93.841 E-0.76000
G1 E-0.04000 F2100.00000
G1 Z0.800 F10800.000
G1 X56.672 Y81.213
G1 Z0.200
G1 E0.80000 F2160.00000
G1 F1200
G1 X61.068 Y81.213 E0.13783
G1 X61.068 Y83.996 E0.08726
G1 X68.259 Y89.081 E0.27615
G1 X75.450 Y83.996 E0.27615
G1 X75.450 Y81.213 E0.08726
G1 X79.846 Y81.213 E0.13783
G1 X79.846 Y92.387 E0.35036
G1 X56.672 Y92.387 E0.72661
G1 X56.672 Y81.273 E0.34848
G1 X57.049 Y81.590 F10800.000
G1 F1200
G1 X60.691 Y81.590 E0.11419
G1 X60.691 Y84.191 E0.08156
G1 X68.259 Y89.543 E0.29063
G1 X75.827 Y84.191 E0.29063
G1 X75.827 Y81.590 E0.08156
G1 X79.469 Y81.590 E0.11419
G1 X79.469 Y92.010 E0.32671
G1 X57.049 Y92.010 E0.70296
G1 X57.049 Y81.650 E0.32483
G1 X56.901 Y81.218 F10800.000
G1 F8640
G1 X60.340 Y81.596 E-0.76000
G1 E-0.04000 F2100.00000
G1 Z0.800 F10800.000
G1 X56.672 Y69.213
G1 Z0.200
G1 E0.80000 F2160.00000
G1 F1200
G1 X79.846 Y69.213 E0.72661
G1 X79.846 Y80.387 E0.35036
G1 X75.450 Y80.387 E0.13783
G1 X75.450 Y76.826 E0.11166
G1 X68.259 Y71.741 E0.27615
G1 X61.068 Y76.826 E0.27615
G1 X61.068 Y80.387 E0.11166
G1 X56.672 Y80.387 E0.13783
G1 X56.672 Y69.273 E0.34848
G1 X57.049 Y69.590 F10800.000
G1 F1200
G1 X79.469 Y69.590 E0.70296
G1 X79.469 Y80.010 E0.32671
G1 X75.827 Y80.010 E0.11419
G1 X75.827 Y76.631 E0.10596
G1 X68.259 Y71.279 E0.29063
G1 X60.691 Y76.631 E0.29063
G1 X60.691 Y80.010 E0.10596
G1 X57.049 Y80.010 E0.11419
G1 X57.049 Y69.650 E0.32483
G1 X57.004 Y69.193 F10800.000
G1 F8640
G1 X60.341 Y69.641 E-0.76000
G1 E-0.04000 F2100.00000
G1 Z0.800 F10800.000
G1 X133.372 Y102.313
G1 Z0.200
G1 E0.80000 F2160.00000
G1 F1200
G1 X145.372 Y102.313 E0.37625
G1 X145.372 Y94.261 E0.25247
G1 X157.025 Y105.000 E0.49688
G1 X145.372 Y115.739 E0.49688
G1 X145.372 Y107.687 E0.25247
G1 X133.372 Y107.687 E0.37625
G1 X133.372 Y102.373 E0.16662
G1 X133.749 Y102.690 F10800.000
G1 F1200
G1 X145.749 Y102.690 E0.37625
G1 X145.749 Y95.121 E0.23732
G1 X156.469 Y105.000 E0.45708
G1 X145.749 Y114.879 E0.45708
G1 X145.749 Y107.310 E0.23732
G1 X133.749 Y107.310 E0.37625
G1 X133.749 Y102.750 E0.14298
G1 X133.593 Y102.322 F10800.000
G1 F8640
G1 X137.040 Y102.734 E-0.76000
G1 E-0.04000 F2100.00000
G1 Z0.800 F10800.000
G1 X158.372 Y86.413
G1 Z0.200
G1 E0.80000 F2160.00000
G1 F1200
G1 X195.546 Y86.413 E1.16557
M73 Q7 S38
G1 X195.546 Y104.587 E0.56984
M73 P7 R37
G1 X187.261 Y104.587 E0.25976
G1 X187.261 Y99.597 E0.15646
G1 X176.959 Y93.353 E0.37772
G1 X166.657 Y99.597 E0.37772
G1 X166.657 Y104.587 E0.15646
G1 X158.372 Y104.587 E0.25976
G1 X158.372 Y86.473 E0.56796
G1 X158.749 Y86.790 F10800.000
G1 F1200
G1 X195.169 Y86.790 E1.14192
G1 X195.169 Y104.210 E0.54619
G1 X187.639 Y104.210 E0.23612
G1 X187.639 Y99.384 E0.15130
G1 X176.959 Y92.912 E0.39155
G1 X166.280 Y99.384 E0.39155
G1 X166.280 Y104.210 E0.15130
G1 X158.749 Y104.210 E0.23612
G1 X158.749 Y86.850 E0.54431
G1 X158.695 Y86.394 F10800.000
G1 F8640
G1 X162.041 Y86.845 E-0.76000
G1 E-0.04000 F2100.00000
G1 Z0.800 F10800.000
G1 X176.959 Y99.831
G1 Z0.200
G1 E0.80000 F2160.00000
G1 F1200
G1 X180.322 Y103.500 E0.15606
G1 X176.959 Y107.169 E0.15606
G1 X173.596 Y103.500 E0.15606
G1 X176.919 Y99.875 E0.15417
G1 X176.959 Y100.389 F10800.000
G1 F1200
G1 X179.811 Y103.500 E0.13232
G1 X176.959 Y106.611 E0.13232
G1 X174.107 Y103.500 E0.13232
G1 X176.919 Y100.433 E0.13044
G1 X177.169 Y100.049 F10800.000
G1 F8640
G1 X179.177 Y102.828 E-0.76000
G1 E-0.04000 F2100.00000
G1 Z0.800 F10800.000
G1 X181.574 Y102.832
G1 Z0.200
G1 E0.80000 F2160.00000
G1 F1200
G1 X187.261 Y106.115 E0.20590
G1 X187.261 Y105.413 E0.02203
G1 X195.546 Y105.413 E0.25976
G1 X195.546 Y123.587 E0.56984
G1 X158.372 Y123.587 E1.16557
G1 X158.372 Y105.413 E0.56984
G1 X166.657 Y105.413 E0.25976
G1 X166.657 Y106.115 E0.02203
G1 X172.344 Y102.832 E0.20590
G1 X173.931 Y105.581 E0.09952
G1 X167.934 Y109.043 E0.21712
G1 X176.959 Y114.514 E0.33090
G1 X185.984 Y109.043 E0.33090
G1 X179.987 Y105.581 E0.21712
G1 X181.544 Y102.884 E0.09764
G1 X181.712 Y103.347 F10800.000
G1 F1200
G1 X187.639 Y106.769 E0.21456
G1 X187.639 Y105.790 E0.03068
G1 X195.169 Y105.790 E0.23612
G1 X195.169 Y123.210 E0.54619
G1 X158.749 Y123.210 E1.14192
G1 X158.749 Y105.790 E0.54619
G1 X166.280 Y105.790 E0.23612
G1 X166.280 Y106.769 E0.03068
G1 X172.206 Y103.347 E0.21456
G1 X173.416 Y105.443 E0.07588
G1 X167.193 Y109.035 E0.22529
G1 X176.959 Y114.954 E0.35805
